;FLAVOR:UltiGCode
;TIME:821
;MATERIAL:1433
;MATERIAL2:0
;NOZZLE_DIAMETER:0.4
;MINX:89.425
;MINY:101.625
;MINZ:0.27
;MAXX:133.575
;MAXY:121.375
;MAXZ:6.87
;Generated with Cura_SteamEngine 4.5.0
M82 ;absolute extrusion mode

G92 E0
G92 E0
G10
;LAYER_COUNT:45
;LAYER:0
M107
G0 F4500 X90.828 Y102.533 Z0.27
;TYPE:SKIRT
G11
G1 F1800 X91.279 Y102.208 E0.05253
G1 X91.773 Y101.951 E0.10516
G1 X92.298 Y101.768 E0.1577
G1 X92.845 Y101.662 E0.21035
G1 X93.521 Y101.627 E0.27432
G1 X129.049 Y101.625 E3.63171
G1 X129.747 Y101.635 E3.69768
G1 X130.301 Y101.683 E3.75023
G1 X130.843 Y101.81 E3.80284
G1 X131.361 Y102.013 E3.85541
G1 X131.844 Y102.288 E3.90793
G1 X132.283 Y102.63 E3.96052
G1 X132.669 Y103.031 E4.01312
G1 X132.994 Y103.483 E4.06573
G1 X133.25 Y103.977 E4.11831
G1 X133.433 Y104.502 E4.17085
G1 X133.538 Y105.049 E4.22348
G1 X133.573 Y105.721 E4.28707
G1 X133.575 Y116.812 E5.33517
G1 X133.566 Y117.539 E5.40388
G1 X133.519 Y118.093 E5.45642
G1 X133.393 Y118.635 E5.50901
G1 X133.191 Y119.154 E5.56164
G1 X132.917 Y119.638 E5.61419
G1 X132.576 Y120.078 E5.6668
G1 X132.176 Y120.464 E5.71933
G1 X131.724 Y120.79 E5.77199
G1 X131.231 Y121.047 E5.82453
G1 X130.706 Y121.231 E5.8771
G1 X130.16 Y121.338 E5.92968
G1 X129.479 Y121.373 E5.99412
G1 X93.957 Y121.375 E9.35095
G1 X93.259 Y121.366 E9.41692
G1 X92.705 Y121.319 E9.46946
G1 X92.163 Y121.193 E9.52204
G1 X91.644 Y120.99 E9.57471
G1 X91.16 Y120.716 E9.62727
G1 X90.721 Y120.375 E9.6798
G1 X90.334 Y119.974 E9.73246
G1 X90.009 Y119.523 E9.78499
G1 X89.752 Y119.029 E9.83762
G1 X89.569 Y118.504 E9.89016
G1 X89.462 Y117.958 E9.94273
G1 X89.426 Y117.263 E10.0085
G1 X89.425 Y106.122 E11.06132
G1 X89.434 Y105.457 E11.12417
G1 X89.482 Y104.902 E11.17682
G1 X89.608 Y104.36 E11.2294
G1 X89.811 Y103.842 E11.28198
G1 X90.086 Y103.358 E11.33458
G1 X90.427 Y102.919 E11.38711
G1 X90.828 Y102.533 E11.43971
G0 F4500 X91.167 Y102.71
G1 F1800 X91.611 Y102.42 E11.48983
G1 X92.094 Y102.2 E11.53998
G1 X92.605 Y102.055 E11.59018
G1 X93.21 Y101.985 E11.64773
G1 X129.043 Y101.975 E15.03395
G1 X129.741 Y101.985 E15.09992
G1 X130.27 Y102.033 E15.15011
G1 X130.785 Y102.159 E15.20022
G1 X131.276 Y102.361 E15.25039
G1 X131.731 Y102.635 E15.30058
G1 X132.139 Y102.974 E15.35071
G1 X132.492 Y103.37 E15.40084
G1 X132.782 Y103.815 E15.45103
G1 X133.001 Y104.298 E15.50115
G1 X133.146 Y104.809 E15.55135
G1 X133.215 Y105.411 E15.60861
G1 X133.225 Y116.808 E16.68563
G1 X133.216 Y117.535 E16.75433
G1 X133.169 Y118.063 E16.80443
G1 X133.044 Y118.579 E16.8546
G1 X132.843 Y119.07 E16.90473
G1 X132.57 Y119.525 E16.95488
G1 X132.232 Y119.934 E17.00502
G1 X131.836 Y120.288 E17.05521
G1 X131.392 Y120.578 E17.10533
G1 X130.909 Y120.799 E17.15552
G1 X130.399 Y120.944 E17.20563
G1 X129.79 Y121.015 E17.26357
G1 X93.962 Y121.025 E20.64931
G1 X93.264 Y121.016 E20.71528
G1 X92.735 Y120.969 E20.76547
G1 X92.219 Y120.843 E20.81566
G1 X91.728 Y120.642 E20.8658
G1 X91.273 Y120.369 E20.91594
G1 X90.864 Y120.031 E20.96608
G1 X90.511 Y119.635 E21.01622
G1 X90.221 Y119.191 E21.06633
G1 X90.001 Y118.708 E21.11649
G1 X89.855 Y118.197 E21.16671
G1 X89.785 Y117.586 E21.22482
G1 X89.775 Y106.126 E22.3078
G1 X89.784 Y105.461 E22.37064
G1 X89.831 Y104.933 E22.42074
G1 X89.957 Y104.417 E22.47093
G1 X90.159 Y103.926 E22.5211
G1 X90.432 Y103.472 E22.57117
G1 X90.771 Y103.063 E22.62137
G1 X91.167 Y102.71 E22.6715
G0 F4500 X91.114 Y103.215
G1 F1800 X91.504 Y102.897 E22.71905
G1 X91.94 Y102.644 E22.76669
G1 X92.41 Y102.464 E22.81425
G1 X92.903 Y102.36 E22.86186
G1 X93.541 Y102.326 E22.92224
G1 X129.038 Y102.325 E26.27671
G1 X129.736 Y102.335 E26.34267
G1 X130.238 Y102.382 E26.39032
G1 X130.725 Y102.508 E26.43786
G1 X131.187 Y102.71 E26.48551
G1 X131.611 Y102.981 E26.53306
G1 X131.987 Y103.317 E26.58071
G1 X132.305 Y103.707 E26.62827
G1 X132.557 Y104.143 E26.67586
G1 X132.737 Y104.613 E26.72342
G1 X132.84 Y105.106 E26.77101
G1 X132.874 Y105.741 E26.8311
G1 X132.875 Y116.803 E27.87646
G1 X132.866 Y117.53 E27.94517
G1 X132.82 Y118.032 E27.99281
G1 X132.695 Y118.52 E28.04041
G1 X132.494 Y118.982 E28.08802
G1 X132.223 Y119.406 E28.13558
G1 X131.889 Y119.782 E28.1831
G1 X131.499 Y120.101 E28.23072
G1 X131.063 Y120.354 E28.27835
G1 X130.593 Y120.535 E28.32595
G1 X130.101 Y120.639 E28.37347
G1 X129.459 Y120.674 E28.43423
G1 X93.966 Y120.675 E31.78832
G1 X93.268 Y120.666 E31.85428
G1 X92.767 Y120.619 E31.90184
G1 X92.279 Y120.494 E31.94944
G1 X91.817 Y120.294 E31.99702
G1 X91.393 Y120.022 E32.04462
G1 X91.016 Y119.688 E32.09222
G1 X90.698 Y119.297 E32.13984
G1 X90.445 Y118.862 E32.1874
G1 X90.264 Y118.392 E32.23499
G1 X90.16 Y117.899 E32.28261
G1 X90.126 Y117.244 E32.34459
G1 X90.125 Y106.131 E33.39477
G1 X90.134 Y105.466 E33.45761
G1 X90.181 Y104.965 E33.50517
G1 X90.306 Y104.477 E33.55277
G1 X90.507 Y104.015 E33.60038
G1 X90.779 Y103.591 E33.64799
G1 X91.114 Y103.215 E33.69558
G10
;MESH:connector_cover.stl
G0 F4500 X93.839 Y104.804
G0 X93.839 Y106.039
G0 X93.895 Y116.905
G0 X93.825 Y116.975
;TYPE:WALL-INNER
G11
G1 F1800 X93.825 Y106.025 E34.73035
G1 X129.175 Y106.025 E38.07093
G1 X129.175 Y116.975 E39.1057
G1 X93.825 Y116.975 E42.44628
G0 F4500 X93.5 Y117.3
;TYPE:WALL-OUTER
G1 F1800 X93.5 Y105.7 E43.54248
G1 X129.5 Y105.7 E46.94448
G1 X129.5 Y117.3 E48.04068
G1 X93.5 Y117.3 E51.44268
G0 F4500 X93.5 Y117.1
G0 X94.165 Y116.635
;TYPE:SKIN
G1 F1800 X94.165 Y106.365 E52.41319
G1 X128.835 Y106.365 E55.68951
G1 X128.835 Y116.635 E56.66002
G1 X94.165 Y116.635 E59.93634
G0 F4500 X94.698 Y116.477
G1 F1800 X94.322 Y116.101 E59.98659
G0 F4500 X94.322 Y115.606
G1 F1800 X95.193 Y116.477 E60.10299
G0 F4500 X95.688 Y116.477
G1 F1800 X94.322 Y115.111 E60.28555
G0 F4500 X94.322 Y114.616
G1 F1800 X96.183 Y116.477 E60.53426
G0 F4500 X96.678 Y116.477
G1 F1800 X94.322 Y114.121 E60.84912
G0 F4500 X94.322 Y113.626
G1 F1800 X97.173 Y116.477 E61.23014
G0 F4500 X97.668 Y116.477
G1 F1800 X94.322 Y113.131 E61.67731
G0 F4500 X94.322 Y112.636
G1 F1800 X98.163 Y116.477 E62.19063
G0 F4500 X98.658 Y116.477
G1 F1800 X94.322 Y112.141 E62.77011
G0 F4500 X94.322 Y111.646
G1 F1800 X99.153 Y116.477 E63.41574
G0 F4500 X99.648 Y116.477
G1 F1800 X94.322 Y111.151 E64.12752
G0 F4500 X94.322 Y110.656
G1 F1800 X100.143 Y116.477 E64.90546
G0 F4500 X100.638 Y116.477
G1 F1800 X94.322 Y110.161 E65.74955
G0 F4500 X94.322 Y109.666
G1 F1800 X101.133 Y116.477 E66.65979
G0 F4500 X101.628 Y116.477
G1 F1800 X94.322 Y109.171 E67.63619
G0 F4500 X94.322 Y108.676
G1 F1800 X102.123 Y116.477 E68.67874
G0 F4500 X102.618 Y116.477
G1 F1800 X94.322 Y108.181 E69.78744
G0 F4500 X94.322 Y107.686
G1 F1800 X103.113 Y116.477 E70.9623
G0 F4500 X103.608 Y116.477
G1 F1800 X94.322 Y107.191 E72.20331
G0 F4500 X94.322 Y106.696
G1 F1800 X104.103 Y116.477 E73.51047
G0 F4500 X104.598 Y116.477
G1 F1800 X94.642 Y106.522 E74.84096
G0 F4500 X95.137 Y106.522
G1 F1800 X105.093 Y116.477 E76.17144
G0 F4500 X105.588 Y116.477
G1 F1800 X95.632 Y106.522 E77.50193
G0 F4500 X96.127 Y106.522
G1 F1800 X106.082 Y116.477 E78.83235
G0 F4500 X106.577 Y116.477
G1 F1800 X96.622 Y106.522 E80.16276
G0 F4500 X97.117 Y106.522
G1 F1800 X107.072 Y116.477 E81.49318
G0 F4500 X107.567 Y116.477
G1 F1800 X97.612 Y106.522 E82.8236
G0 F4500 X98.107 Y106.522
G1 F1800 X108.062 Y116.477 E84.15402
G0 F4500 X108.557 Y116.477
G1 F1800 X98.602 Y106.522 E85.48444
G0 F4500 X99.097 Y106.522
G1 F1800 X109.052 Y116.477 E86.81485
G0 F4500 X109.547 Y116.477
G1 F1800 X99.592 Y106.522 E88.14527
G0 F4500 X100.087 Y106.522
G1 F1800 X110.042 Y116.477 E89.47569
G0 F4500 X110.537 Y116.477
G1 F1800 X100.582 Y106.522 E90.80611
G0 F4500 X101.077 Y106.522
G1 F1800 X111.032 Y116.477 E92.13653
G0 F4500 X111.527 Y116.477
G1 F1800 X101.572 Y106.522 E93.46694
G0 F4500 X102.067 Y106.522
G1 F1800 X112.022 Y116.477 E94.79736
G0 F4500 X112.517 Y116.477
G1 F1800 X102.562 Y106.522 E96.12778
G0 F4500 X103.057 Y106.522
G1 F1800 X113.012 Y116.477 E97.4582
G0 F4500 X113.507 Y116.477
G1 F1800 X103.552 Y106.522 E98.78861
G0 F4500 X104.047 Y106.522
G1 F1800 X114.002 Y116.477 E100.11903
G0 F4500 X114.497 Y116.477
G1 F1800 X104.542 Y106.522 E101.44945
G0 F4500 X105.037 Y106.522
G1 F1800 X114.992 Y116.477 E102.77987
G0 F4500 X115.487 Y116.477
G1 F1800 X105.532 Y106.522 E104.11029
G0 F4500 X106.027 Y106.522
G1 F1800 X115.982 Y116.477 E105.4407
G0 F4500 X116.477 Y116.477
G1 F1800 X106.522 Y106.522 E106.77112
G0 F4500 X107.017 Y106.522
G1 F1800 X116.972 Y116.477 E108.10154
G0 F4500 X117.467 Y116.477
G1 F1800 X107.512 Y106.522 E109.43196
G0 F4500 X108.007 Y106.522
G1 F1800 X117.962 Y116.477 E110.76238
G0 F4500 X118.457 Y116.477
G1 F1800 X108.502 Y106.522 E112.09279
G0 F4500 X108.996 Y106.522
G1 F1800 X118.952 Y116.477 E113.42328
G0 F4500 X119.447 Y116.477
G1 F1800 X109.491 Y106.522 E114.75376
G0 F4500 X109.986 Y106.522
G1 F1800 X119.942 Y116.477 E116.08425
G0 F4500 X120.437 Y116.477
G1 F1800 X110.481 Y106.522 E117.41473
G0 F4500 X110.976 Y106.522
G1 F1800 X120.932 Y116.477 E118.74522
G0 F4500 X121.427 Y116.477
G1 F1800 X111.471 Y106.522 E120.0757
G0 F4500 X111.966 Y106.522
G1 F1800 X121.922 Y116.477 E121.40619
G0 F4500 X122.417 Y116.477
G1 F1800 X112.461 Y106.522 E122.73667
G0 F4500 X112.956 Y106.522
G1 F1800 X122.912 Y116.477 E124.06716
G0 F4500 X123.407 Y116.477
G1 F1800 X113.451 Y106.522 E125.39764
G0 F4500 X113.946 Y106.522
G1 F1800 X123.902 Y116.477 E126.72812
G0 F4500 X124.397 Y116.477
G1 F1800 X114.441 Y106.522 E128.05861
G0 F4500 X114.936 Y106.522
G1 F1800 X124.892 Y116.477 E129.38909
G0 F4500 X125.387 Y116.477
G1 F1800 X115.431 Y106.522 E130.71958
G0 F4500 X115.926 Y106.522
G1 F1800 X125.881 Y116.477 E132.05
G0 F4500 X126.376 Y116.477
G1 F1800 X116.421 Y106.522 E133.38041
G0 F4500 X116.916 Y106.522
G1 F1800 X126.871 Y116.477 E134.71083
G0 F4500 X127.366 Y116.477
G1 F1800 X117.411 Y106.522 E136.04125
G0 F4500 X117.906 Y106.522
G1 F1800 X127.861 Y116.477 E137.37167
G0 F4500 X128.356 Y116.477
G1 F1800 X118.401 Y106.522 E138.70209
G0 F4500 X118.896 Y106.522
G1 F1800 X128.677 Y116.302 E140.00918
G0 F4500 X128.677 Y115.807
G1 F1800 X119.391 Y106.522 E141.25013
G0 F4500 X119.886 Y106.522
G1 F1800 X128.677 Y115.312 E142.42492
G0 F4500 X128.677 Y114.817
G1 F1800 X120.381 Y106.522 E143.53355
G0 F4500 X120.876 Y106.522
G1 F1800 X128.677 Y114.322 E144.57604
G0 F4500 X128.677 Y113.827
G1 F1800 X121.371 Y106.522 E145.55237
G0 F4500 X121.866 Y106.522
G1 F1800 X128.677 Y113.332 E146.46255
G0 F4500 X128.677 Y112.837
G1 F1800 X122.361 Y106.522 E147.30657
G0 F4500 X122.856 Y106.522
G1 F1800 X128.677 Y112.343 E148.08451
G0 F4500 X128.677 Y111.848
G1 F1800 X123.351 Y106.522 E148.79629
G0 F4500 X123.846 Y106.522
G1 F1800 X128.677 Y111.353 E149.44192
G0 F4500 X128.677 Y110.858
G1 F1800 X124.341 Y106.522 E150.0214
G0 F4500 X124.836 Y106.522
G1 F1800 X128.677 Y110.363 E150.53472
G0 F4500 X128.677 Y109.868
G1 F1800 X125.331 Y106.522 E150.98189
G0 F4500 X125.826 Y106.522
G1 F1800 X128.677 Y109.373 E151.36291
G0 F4500 X128.677 Y108.878
G1 F1800 X126.321 Y106.522 E151.67777
G0 F4500 X126.816 Y106.522
G1 F1800 X128.677 Y108.383 E151.92648
G0 F4500 X128.677 Y107.888
G1 F1800 X127.311 Y106.522 E152.10904
G0 F4500 X127.806 Y106.522
G1 F1800 X128.677 Y107.393 E152.22544
G0 F4500 X128.677 Y106.898
G1 F1800 X128.3 Y106.522 E152.27576
;MESH:NONMESH
G0 F600 X128.3 Y106.522 Z0.42
G0 F4500 X93.895 Y116.905
G0 X93.825 Y116.975
;TIME_ELAPSED:60.547981
;LAYER:1
M106 S255
;TYPE:WALL-INNER
;MESH:connector_cover.stl
G1 F2400 X93.825 Y106.025 E152.85063
G1 X129.175 Y106.025 E154.70651
G1 X129.175 Y116.975 E155.28138
G1 X93.825 Y116.975 E157.13726
G0 F6750 X93.5 Y117.3
;TYPE:WALL-OUTER
G1 F2100 X93.5 Y105.7 E157.74626
G1 X129.5 Y105.7 E159.63626
G1 X129.5 Y117.3 E160.24526
G1 X93.5 Y117.3 E162.13526
G0 F6750 X93.5 Y117.1
G0 X94.165 Y116.635
;TYPE:SKIN
G1 F1800 X94.165 Y106.365 E162.67443
G1 X128.835 Y106.365 E164.49461
G1 X128.835 Y116.635 E165.03378
G1 X94.165 Y116.635 E166.85396
G0 F6750 X94.322 Y106.637
G1 F1800 X94.438 Y106.521 E166.86257
G0 F6750 X94.933 Y106.521
G1 F1800 X94.322 Y107.132 E166.90793
G0 F6750 X94.322 Y107.627
G1 F1800 X95.428 Y106.521 E166.99005
G0 F6750 X95.923 Y106.521
G1 F1800 X94.322 Y108.122 E167.10892
G0 F6750 X94.322 Y108.617
G1 F1800 X96.418 Y106.521 E167.26454
G0 F6750 X96.913 Y106.521
G1 F1800 X94.322 Y109.112 E167.45691
G0 F6750 X94.322 Y109.607
G1 F1800 X97.408 Y106.521 E167.68603
G0 F6750 X97.903 Y106.521
G1 F1800 X94.322 Y110.102 E167.95191
G0 F6750 X94.322 Y110.597
G1 F1800 X98.398 Y106.521 E168.25454
G0 F6750 X98.893 Y106.521
G1 F1800 X94.322 Y111.092 E168.59392
G0 F6750 X94.322 Y111.587
G1 F1800 X99.388 Y106.521 E168.97005
G0 F6750 X99.883 Y106.521
G1 F1800 X94.322 Y112.082 E169.38293
G0 F6750 X94.322 Y112.577
G1 F1800 X100.378 Y106.521 E169.83257
G0 F6750 X100.873 Y106.521
G1 F1800 X94.322 Y113.072 E170.31895
G0 F6750 X94.322 Y113.567
G1 F1800 X101.367 Y106.521 E170.84205
G0 F6750 X101.862 Y106.521
G1 F1800 X94.322 Y114.061 E171.40187
G0 F6750 X94.322 Y114.556
G1 F1800 X102.357 Y106.521 E171.99844
G0 F6750 X102.852 Y106.521
G1 F1800 X94.322 Y115.051 E172.63176
G0 F6750 X94.322 Y115.546
G1 F1800 X103.347 Y106.521 E173.30183
G0 F6750 X103.842 Y106.521
G1 F1800 X94.322 Y116.041 E174.00866
G0 F6750 X94.381 Y116.478
G1 F1800 X104.337 Y106.521 E174.74789
G0 F6750 X104.832 Y106.521
G1 F1800 X94.876 Y116.478 E175.48712
G0 F6750 X95.371 Y116.478
G1 F1800 X105.327 Y106.521 E176.22635
G0 F6750 X105.822 Y106.521
G1 F1800 X95.866 Y116.478 E176.96559
G0 F6750 X96.36 Y116.478
G1 F1800 X106.317 Y106.521 E177.70485
G0 F6750 X106.812 Y106.521
G1 F1800 X96.855 Y116.478 E178.44412
G0 F6750 X97.35 Y116.478
G1 F1800 X107.307 Y106.521 E179.18339
G0 F6750 X107.802 Y106.521
G1 F1800 X97.845 Y116.478 E179.92266
G0 F6750 X98.34 Y116.478
G1 F1800 X108.297 Y106.521 E180.66193
G0 F6750 X108.792 Y106.521
G1 F1800 X98.835 Y116.478 E181.4012
G0 F6750 X99.33 Y116.478
G1 F1800 X109.287 Y106.521 E182.14047
G0 F6750 X109.782 Y106.521
G1 F1800 X99.825 Y116.478 E182.87974
G0 F6750 X100.32 Y116.478
G1 F1800 X110.277 Y106.521 E183.61901
G0 F6750 X110.772 Y106.521
G1 F1800 X100.815 Y116.478 E184.35828
G0 F6750 X101.31 Y116.478
G1 F1800 X111.267 Y106.521 E185.09755
G0 F6750 X111.762 Y106.521
G1 F1800 X101.805 Y116.478 E185.83682
G0 F6750 X102.3 Y116.478
G1 F1800 X112.257 Y106.521 E186.57609
G0 F6750 X112.752 Y106.521
G1 F1800 X102.795 Y116.478 E187.31536
G0 F6750 X103.29 Y116.478
G1 F1800 X113.247 Y106.521 E188.05463
G0 F6750 X113.742 Y106.521
G1 F1800 X103.785 Y116.478 E188.7939
G0 F6750 X104.28 Y116.478
G1 F1800 X114.237 Y106.521 E189.53317
G0 F6750 X114.732 Y106.521
G1 F1800 X104.775 Y116.478 E190.27244
G0 F6750 X105.27 Y116.478
G1 F1800 X115.227 Y106.521 E191.01171
G0 F6750 X115.722 Y106.521
G1 F1800 X105.765 Y116.478 E191.75098
G0 F6750 X106.26 Y116.478
G1 F1800 X116.217 Y106.521 E192.49025
G0 F6750 X116.712 Y106.521
G1 F1800 X106.755 Y116.478 E193.22951
G0 F6750 X107.25 Y116.478
G1 F1800 X117.207 Y106.521 E193.96878
G0 F6750 X117.702 Y106.521
G1 F1800 X107.745 Y116.478 E194.70805
G0 F6750 X108.24 Y116.478
G1 F1800 X118.197 Y106.521 E195.44732
G0 F6750 X118.692 Y106.521
G1 F1800 X108.735 Y116.478 E196.18659
G0 F6750 X109.23 Y116.478
G1 F1800 X119.187 Y106.521 E196.92586
G0 F6750 X119.682 Y106.521
G1 F1800 X109.725 Y116.478 E197.66513
G0 F6750 X110.22 Y116.478
G1 F1800 X120.177 Y106.521 E198.4044
G0 F6750 X120.672 Y106.521
G1 F1800 X110.715 Y116.478 E199.14367
G0 F6750 X111.21 Y116.478
G1 F1800 X121.166 Y106.521 E199.8829
G0 F6750 X121.661 Y106.521
G1 F1800 X111.705 Y116.478 E200.62214
G0 F6750 X112.2 Y116.478
G1 F1800 X122.156 Y106.521 E201.36137
G0 F6750 X122.651 Y106.521
G1 F1800 X112.695 Y116.478 E202.1006
G0 F6750 X113.19 Y116.478
G1 F1800 X123.146 Y106.521 E202.83983
G0 F6750 X123.641 Y106.521
G1 F1800 X113.685 Y116.478 E203.57907
G0 F6750 X114.18 Y116.478
G1 F1800 X124.136 Y106.521 E204.3183
G0 F6750 X124.631 Y106.521
G1 F1800 X114.675 Y116.478 E205.05753
G0 F6750 X115.17 Y116.478
G1 F1800 X125.126 Y106.521 E205.79676
G0 F6750 X125.621 Y106.521
G1 F1800 X115.664 Y116.478 E206.53603
G0 F6750 X116.159 Y116.478
G1 F1800 X126.116 Y106.521 E207.2753
G0 F6750 X126.611 Y106.521
G1 F1800 X116.654 Y116.478 E208.01457
G0 F6750 X117.149 Y116.478
