;FLAVOR:UltiGCode
;TIME:786
;MATERIAL:902
;MATERIAL2:0
;NOZZLE_DIAMETER:0.4
;MINX:92.146
;MINY:104.153
;MINZ:0.27
;MAXX:143.479
;MAXY:119.015
;MAXZ:11.97
;Generated with Cura_SteamEngine 4.5.0
M82 ;absolute extrusion mode

G92 E0
G92 E0
G10
;LAYER_COUNT:81
;LAYER:0
M107
G0 F4500 X94.448 Y106.152 Z0.27
;TYPE:SKIRT
G11
G1 F1800 X95.269 Y105.495 E0.09937
G1 X95.764 Y105.168 E0.15543
G1 X96.451 Y104.809 E0.22868
G1 X97.49 Y104.429 E0.33323
G1 X98.149 Y104.276 E0.39716
G1 X98.889 Y104.178 E0.4677
G1 X99.57 Y104.154 E0.5321
G1 X101.423 Y104.217 E0.70731
G1 X104.268 Y104.299 E0.97627
G1 X106.98 Y104.297 E1.23255
G1 X110.677 Y104.171 E1.58212
G1 X111.633 Y104.153 E1.67248
G1 X113.423 Y104.217 E1.84174
G1 X116.268 Y104.299 E2.11071
G1 X118.98 Y104.297 E2.36699
G1 X122.677 Y104.171 E2.71656
G1 X123.633 Y104.153 E2.80692
G1 X127.182 Y104.339 E3.14276
G1 X129.861 Y104.414 E3.39603
G1 X132.582 Y104.414 E3.65316
G1 X133.918 Y104.369 E3.77948
G1 X136.268 Y104.323 E4.0016
G1 X136.984 Y104.375 E4.06944
G1 X137.73 Y104.5 E4.14092
G1 X138.53 Y104.725 E4.21945
G1 X139.192 Y104.99 E4.28684
G1 X139.895 Y105.359 E4.36187
G1 X140.493 Y105.756 E4.4297
G1 X141.123 Y106.278 E4.50701
G1 X141.648 Y106.816 E4.57805
G1 X142.133 Y107.424 E4.65155
G1 X142.453 Y107.921 E4.70741
G1 X142.656 Y108.266 E4.74524
G1 X142.944 Y108.897 E4.81078
G1 X143.156 Y109.499 E4.8711
G1 X143.33 Y110.193 E4.93871
G1 X143.438 Y110.89 E5.00536
G1 X143.479 Y111.682 E5.08031
G1 X143.441 Y112.42 E5.15014
G1 X143.311 Y113.234 E5.22804
G1 X143.117 Y113.95 E5.29814
G1 X142.817 Y114.72 E5.37623
G1 X142.477 Y115.376 E5.44605
G1 X142.032 Y116.052 E5.52254
G1 X141.591 Y116.589 E5.5882
G1 X141.021 Y117.152 E5.66391
G1 X140.408 Y117.644 E5.73819
G1 X139.848 Y118.019 E5.80188
G1 X139.18 Y118.364 E5.87293
G1 X138.15 Y118.74 E5.97655
G1 X137.519 Y118.887 E6.03777
G1 X136.802 Y118.985 E6.10616
G1 X136.083 Y119.015 E6.17416
G1 X135.261 Y118.989 E6.25188
G1 X132.456 Y118.831 E6.51737
G1 X129.777 Y118.756 E6.77064
G1 X127.056 Y118.756 E7.02777
G1 X125.72 Y118.801 E7.1541
G1 X123.37 Y118.847 E7.37621
G1 X121.577 Y118.783 E7.54576
G1 X118.732 Y118.701 E7.81472
G1 X116.019 Y118.703 E8.0711
G1 X112.323 Y118.829 E8.42058
G1 X111.367 Y118.847 E8.51094
G1 X109.577 Y118.783 E8.6802
G1 X106.732 Y118.701 E8.94916
G1 X104.019 Y118.703 E9.20554
G1 X100.323 Y118.829 E9.55502
G1 X99.367 Y118.847 E9.64537
G1 X98.658 Y118.795 E9.71256
G1 X97.925 Y118.673 E9.78278
G1 X97.128 Y118.451 E9.86096
G1 X96.452 Y118.182 E9.92971
G1 X95.742 Y117.81 E10.00546
G1 X95.144 Y117.413 E10.07329
G1 X94.523 Y116.901 E10.14935
G1 X94.015 Y116.384 E10.21784
G1 X93.514 Y115.756 E10.29376
G1 X93.138 Y115.168 E10.35972
G1 X92.788 Y114.475 E10.43308
G1 X92.529 Y113.804 E10.50105
G1 X92.366 Y113.272 E10.55363
G1 X92.191 Y112.194 E10.65684
G1 X92.146 Y111.64 E10.70936
G1 X92.197 Y110.719 E10.79653
G1 X92.268 Y110.191 E10.84688
G1 X92.475 Y109.332 E10.93038
G1 X92.894 Y108.275 E11.03782
G1 X93.162 Y107.785 E11.0906
G1 X93.542 Y107.217 E11.15518
G1 X94.07 Y106.56 E11.23483
G1 X94.448 Y106.152 E11.28739
G0 F4500 X94.705 Y106.391
G1 F1800 X95.483 Y105.771 E11.38141
G1 X95.934 Y105.474 E11.43244
G1 X96.589 Y105.13 E11.50235
G1 X97.569 Y104.77 E11.60101
G1 X98.228 Y104.617 E11.66494
G1 X98.901 Y104.528 E11.7291
G1 X99.582 Y104.504 E11.79349
G1 X101.37 Y104.565 E11.96256
G1 X104.293 Y104.649 E12.23889
G1 X106.992 Y104.647 E12.49395
G1 X110.689 Y104.521 E12.84352
G1 X111.639 Y104.503 E12.93331
G1 X113.37 Y104.565 E13.09699
G1 X116.293 Y104.649 E13.37333
G1 X118.992 Y104.647 E13.62839
G1 X122.689 Y104.521 E13.97796
G1 X123.639 Y104.503 E14.06775
G1 X127.117 Y104.687 E14.39688
G1 X129.887 Y104.764 E14.65874
G1 X132.593 Y104.764 E14.91446
G1 X133.929 Y104.719 E15.04078
G1 X136.275 Y104.673 E15.26252
G1 X136.927 Y104.72 E15.3243
G1 X137.673 Y104.845 E15.39578
G1 X138.4 Y105.049 E15.46713
G1 X139.062 Y105.314 E15.53452
G1 X139.702 Y105.65 E15.60283
G1 X140.3 Y106.047 E15.67066
G1 X140.873 Y106.522 E15.74099
G1 X141.398 Y107.06 E15.81203
G1 X141.839 Y107.614 E15.87894
G1 X142.159 Y108.111 E15.9348
G1 X142.352 Y108.439 E15.97077
G1 X142.614 Y109.013 E16.03039
G1 X142.826 Y109.615 E16.09071
G1 X142.984 Y110.246 E16.15218
G1 X143.092 Y110.943 E16.21883
G1 X143.129 Y111.664 E16.28705
G1 X143.091 Y112.402 E16.35689
G1 X142.973 Y113.143 E16.42779
G1 X142.779 Y113.859 E16.4979
G1 X142.507 Y114.559 E16.56886
G1 X142.167 Y115.215 E16.63869
G1 X141.761 Y115.83 E16.70833
G1 X141.32 Y116.367 E16.77399
G1 X140.802 Y116.879 E16.84282
G1 X140.189 Y117.371 E16.9171
G1 X139.68 Y117.712 E16.975
G1 X139.043 Y118.042 E17.04279
G1 X138.071 Y118.399 E17.14064
G1 X137.44 Y118.546 E17.20187
G1 X136.787 Y118.635 E17.26415
G1 X136.068 Y118.665 E17.33215
G1 X135.279 Y118.639 E17.40676
G1 X132.521 Y118.483 E17.6678
G1 X129.751 Y118.406 E17.92967
G1 X127.045 Y118.406 E18.18539
G1 X125.709 Y118.451 E18.31171
G1 X123.363 Y118.497 E18.53345
G1 X121.63 Y118.435 E18.69732
G1 X118.707 Y118.351 E18.97366
G1 X116.007 Y118.353 E19.22881
G1 X112.311 Y118.479 E19.57828
G1 X111.361 Y118.497 E19.66808
G1 X109.63 Y118.435 E19.83176
G1 X106.707 Y118.351 E20.1081
G1 X104.007 Y118.353 E20.36325
G1 X100.311 Y118.479 E20.71272
G1 X99.361 Y118.497 E20.80251
G1 X98.715 Y118.45 E20.86372
G1 X97.982 Y118.328 E20.93394
G1 X97.258 Y118.126 E21.00497
G1 X96.582 Y117.857 E21.07373
G1 X95.935 Y117.519 E21.14271
G1 X95.337 Y117.122 E21.21054
G1 X94.773 Y116.656 E21.27968
G1 X94.265 Y116.139 E21.34817
G1 X93.809 Y115.567 E21.4173
G1 X93.433 Y114.979 E21.48326
G1 X93.114 Y114.349 E21.54999
G1 X92.855 Y113.678 E21.61796
G1 X92.66 Y112.943 E21.68982
G1 X92.537 Y112.141 E21.76649
G1 X92.504 Y111.373 E21.83914
G1 X92.546 Y110.742 E21.8989
G1 X92.695 Y109.856 E21.9838
G1 X92.954 Y109.008 E22.06759
G1 X93.201 Y108.443 E22.12586
G1 X93.469 Y107.953 E22.17864
G1 X93.814 Y107.436 E22.23738
G1 X94.342 Y106.779 E22.31703
G1 X94.705 Y106.391 E22.36724
G0 F4500 X95.142 Y106.48
G1 F1800 X95.698 Y106.048 E22.43378
G1 X96.437 Y105.595 E22.51569
G1 X97.114 Y105.286 E22.58601
G1 X97.648 Y105.111 E22.63912
G1 X98.307 Y104.958 E22.70305
G1 X98.913 Y104.878 E22.76081
G1 X99.594 Y104.854 E22.82521
G1 X101.395 Y104.916 E22.9955
G1 X104.283 Y104.999 E23.26853
G1 X107.005 Y104.997 E23.52576
G1 X110.701 Y104.871 E23.87524
G1 X111.646 Y104.853 E23.96455
G1 X113.395 Y104.916 E24.12994
G1 X116.283 Y104.999 E24.40297
G1 X119.005 Y104.997 E24.6602
G1 X122.701 Y104.871 E25.00968
G1 X123.646 Y104.853 E25.09899
G1 X127.124 Y105.037 E25.42812
G1 X129.878 Y105.114 E25.68848
G1 X132.605 Y105.114 E25.94618
G1 X133.941 Y105.069 E26.0725
G1 X136.282 Y105.023 E26.29377
G1 X136.869 Y105.066 E26.34939
G1 X137.615 Y105.191 E26.42087
G1 X138.27 Y105.374 E26.48514
G1 X138.932 Y105.639 E26.55252
G1 X139.508 Y105.942 E26.61403
G1 X140.106 Y106.339 E26.68186
G1 X140.622 Y106.767 E26.74521
G1 X141.147 Y107.305 E26.81625
G1 X141.545 Y107.803 E26.87649
G1 X141.865 Y108.3 E26.93235
G1 X142.284 Y109.129 E27.02013
G1 X142.496 Y109.731 E27.08044
G1 X142.639 Y110.3 E27.13589
G1 X142.747 Y110.997 E27.20254
G1 X142.78 Y111.646 E27.26395
G1 X142.742 Y112.384 E27.33378
G1 X142.636 Y113.051 E27.3976
G1 X142.442 Y113.767 E27.46771
G1 X142.196 Y114.398 E27.53171
G1 X141.856 Y115.054 E27.60153
G1 X141.491 Y115.608 E27.66423
G1 X141.05 Y116.145 E27.72989
G1 X140.583 Y116.606 E27.7919
G1 X139.97 Y117.098 E27.86618
G1 X139.511 Y117.405 E27.91837
G1 X138.905 Y117.72 E27.98291
G1 X137.991 Y118.058 E28.075
G1 X137.36 Y118.205 E28.13622
G1 X136.772 Y118.285 E28.1923
G1 X136.053 Y118.315 E28.26031
G1 X135.297 Y118.29 E28.33179
G1 X132.514 Y118.133 E28.5952
G1 X129.76 Y118.056 E28.85555
G1 X127.033 Y118.056 E29.11325
G1 X125.697 Y118.101 E29.23958
G1 X123.356 Y118.147 E29.46084
G1 X121.605 Y118.084 E29.62642
G1 X118.717 Y118.001 E29.89945
G1 X115.994 Y118.003 E30.15677
G1 X112.299 Y118.129 E30.50615
G1 X111.354 Y118.147 E30.59547
G1 X109.605 Y118.084 E30.76086
G1 X106.717 Y118.001 E31.03389
G1 X103.994 Y118.003 E31.29121
G1 X100.299 Y118.129 E31.64059
G1 X99.354 Y118.147 E31.72991
G1 X98.773 Y118.105 E31.78496
G1 X98.04 Y117.983 E31.85518
G1 X97.387 Y117.801 E31.91924
G1 X96.711 Y117.532 E31.988
G1 X96.129 Y117.227 E32.05009
G1 X95.531 Y116.83 E32.11792
G1 X95.022 Y116.41 E32.18028
G1 X94.514 Y115.893 E32.24878
G1 X94.104 Y115.378 E32.31098
G1 X93.728 Y114.79 E32.37694
G1 X93.441 Y114.223 E32.43699
G1 X93.182 Y113.552 E32.50496
G1 X93.006 Y112.89 E32.56969
G1 X92.883 Y112.088 E32.64637
G1 X92.853 Y111.396 E32.71182
G1 X92.895 Y110.765 E32.77159
G1 X93.038 Y109.927 E32.85192
G1 X93.285 Y109.12 E32.93168
G1 X93.508 Y108.61 E32.98428
G1 X93.776 Y108.12 E33.03705
G1 X94.087 Y107.655 E33.08992
G1 X94.615 Y106.998 E33.16957
G1 X95.142 Y106.48 E33.2394
G10
;MESH:display_holder.stl(2)
G0 F4500 X98.936 Y107.35
G0 X99.194 Y108.563
G0 X100.936 Y109.013
G0 X100.986 Y108.927
;TYPE:WALL-INNER
G11
G1 F1800 X101.488 Y109.292 E33.29806
G1 X101.894 Y109.742 E33.35533
G1 X102.208 Y110.28 E33.4142
G1 X102.403 Y110.873 E33.47319
G1 X102.471 Y111.489 E33.53175
G1 X102.409 Y112.108 E33.59054
G1 X102.22 Y112.695 E33.64882
G1 X101.91 Y113.239 E33.70799
G1 X101.499 Y113.699 E33.76628
G1 X100.988 Y114.073 E33.82612
G1 X100.421 Y114.326 E33.8848
G1 X99.808 Y114.456 E33.94401
G1 X99.192 Y114.456 E34.00222
G1 X98.581 Y114.326 E34.06126
G1 X98.014 Y114.073 E34.11993
G1 X97.512 Y113.708 E34.17858
G1 X97.106 Y113.258 E34.23586
G1 X96.792 Y112.72 E34.29472
G1 X96.597 Y112.127 E34.35371
G1 X96.529 Y111.509 E34.41247
G1 X96.591 Y110.889 E34.47135
G1 X96.78 Y110.305 E34.52936
G1 X97.09 Y109.761 E34.58853
G1 X97.501 Y109.301 E34.64682
G1 X98.012 Y108.927 E34.70666
G1 X98.579 Y108.674 E34.76533
G1 X99.192 Y108.544 E34.82455
G1 X99.808 Y108.544 E34.88276
G1 X100.419 Y108.674 E34.9418
G1 X100.986 Y108.927 E35.00047
G0 F4500 X100.936 Y109.013
G0 X98.534 Y109.845
G0 X97.949 Y110.373
G0 X97.623 Y111.101
G0 X97.901 Y112.662
G0 X97.981 Y112.604
G1 F1800 X98.252 Y112.901 E35.03846
G1 X98.569 Y113.129 E35.07536
G1 X98.929 Y113.289 E35.11259
G1 X99.315 Y113.368 E35.14983
G1 X99.706 Y113.366 E35.18678
G1 X100.089 Y113.282 E35.22383
G1 X100.446 Y113.121 E35.26084
G1 X100.757 Y112.895 E35.29717
G1 X101.019 Y112.604 E35.33417
G1 X101.215 Y112.264 E35.37126
G1 X101.338 Y111.891 E35.40837
G1 X101.378 Y111.5 E35.44551
G1 X101.338 Y111.109 E35.48266
G1 X101.215 Y110.736 E35.51977
G1 X101.018 Y110.394 E35.55707
G1 X100.748 Y110.099 E35.59486
G1 X100.431 Y109.871 E35.63176
G1 X100.071 Y109.711 E35.66899
G1 X99.685 Y109.632 E35.70622
G1 X99.294 Y109.634 E35.74317
G1 X98.911 Y109.718 E35.78023
G1 X98.554 Y109.879 E35.81724
G1 X98.243 Y110.105 E35.85357
G1 X97.981 Y110.396 E35.89057
G1 X97.785 Y110.736 E35.92765
G1 X97.662 Y111.109 E35.96477
G1 X97.622 Y111.5 E36.00191
G1 X97.662 Y111.891 E36.03906
G1 X97.781 Y112.254 E36.07515
G1 X97.981 Y112.604 E36.11325
G0 F4500 X98.245 Y112.412
;TYPE:WALL-OUTER
G1 F1800 X98.469 Y112.657 E36.14462
G1 X98.732 Y112.846 E36.17523
G1 X99.029 Y112.978 E36.20594
G1 X99.347 Y113.043 E36.23661
G1 X99.67 Y113.041 E36.26714
G1 X99.987 Y112.972 E36.29779
G1 X100.282 Y112.839 E36.32837
G1 X100.538 Y112.652 E36.35833
G1 X100.755 Y112.412 E36.38891
G1 X100.917 Y112.131 E36.41956
G1 X101.018 Y111.823 E36.45019
G1 X101.051 Y111.5 E36.48087
G1 X101.018 Y111.177 E36.51156
G1 X100.917 Y110.869 E36.54219
G1 X100.754 Y110.587 E36.57297
G1 X100.531 Y110.343 E36.6042
G1 X100.268 Y110.154 E36.63481
G1 X99.971 Y110.022 E36.66552
G1 X99.653 Y109.957 E36.6962
G1 X99.33 Y109.959 E36.72672
G1 X99.013 Y110.028 E36.75738
G1 X98.718 Y110.161 E36.78796
G1 X98.462 Y110.348 E36.81792
G1 X98.245 Y110.588 E36.84849
G1 X98.083 Y110.869 E36.87914
G1 X97.982 Y111.177 E36.90977
G1 X97.949 Y111.5 E36.94046
G1 X97.982 Y111.823 E36.97114
G1 X98.08 Y112.122 E37.00087
G1 X98.245 Y112.412 E37.0324
G0 F4500 X98.38 Y112.56
G0 X98.067 Y112.845
G0 X97.623 Y111.899
G0 X97.623 Y111.101
G0 X97.949 Y110.373
G0 X98.534 Y109.845
G0 X100.936 Y109.013
G0 X101.148 Y108.643
G1 F1800 X101.707 Y109.049 E37.09769
G1 X102.159 Y109.551 E37.16153
G1 X102.506 Y110.146 E37.22662
G1 X102.722 Y110.801 E37.29179
G1 X102.797 Y111.486 E37.35691
G1 X102.729 Y112.175 E37.42234
G1 X102.519 Y112.826 E37.48698
G1 X102.176 Y113.428 E37.55246
G1 X101.717 Y113.942 E37.61758
G1 X101.151 Y114.356 E37.68385
G1 X100.521 Y114.637 E37.74904
G1 X99.843 Y114.781 E37.81454
G1 X99.157 Y114.781 E37.87936
G1 X98.479 Y114.637 E37.94486
G1 X97.852 Y114.357 E38.00975
G1 X97.293 Y113.951 E38.07504
G1 X96.841 Y113.449 E38.13888
G1 X96.494 Y112.854 E38.20397
G1 X96.278 Y112.199 E38.26914
G1 X96.203 Y111.512 E38.33445
G1 X96.272 Y110.821 E38.40008
G1 X96.481 Y110.174 E38.46433
G1 X96.824 Y109.572 E38.5298
G1 X97.283 Y109.058 E38.59492
G1 X97.849 Y108.644 E38.66119
G1 X98.479 Y108.363 E38.72638
G1 X99.157 Y108.219 E38.79188
G1 X99.843 Y108.219 E38.85671
G1 X100.521 Y108.363 E38.92221
G1 X101.148 Y108.643 E38.9871
G0 F4500 X101.31 Y108.76
G0 X100.815 Y109.224
;TYPE:SKIN
G1 F1800 X101.26 Y109.547 E39.03906
G1 X101.617 Y109.942 E39.08938
G1 X101.895 Y110.42 E39.14163
G1 X102.069 Y110.947 E39.19408
G1 X102.129 Y111.489 E39.24561
G1 X102.075 Y112.035 E39.29746
G1 X101.907 Y112.559 E39.34946
G1 X101.632 Y113.039 E39.40174
G1 X101.267 Y113.449 E39.45361
G1 X100.821 Y113.775 E39.50581
G1 X100.311 Y114.002 E39.55857
G1 X99.776 Y114.116 E39.61026
G1 X99.224 Y114.116 E39.66242
G1 X98.691 Y114.002 E39.71393
G1 X98.185 Y113.776 E39.7663
G1 X97.74 Y113.453 E39.81826
G1 X97.381 Y113.055 E39.86892
G1 X97.105 Y112.58 E39.92083
G1 X96.931 Y112.053 E39.97328
G1 X96.871 Y111.505 E40.02537
G1 X96.925 Y110.959 E40.07722
G1 X97.092 Y110.445 E40.12829
G1 X97.368 Y109.96 E40.18103
G1 X97.733 Y109.551 E40.23283
G1 X98.179 Y109.225 E40.28504
G1 X98.689 Y108.998 E40.33779
G1 X99.224 Y108.884 E40.38948
G1 X99.776 Y108.884 E40.44165
G1 X100.309 Y108.998 E40.49315
G1 X100.815 Y109.224 E40.54552
G0 F4500 X100.602 Y109.574
G1 F1800 X100.176 Y109.385 E40.58957
G1 X99.718 Y109.292 E40.63373
G1 X99.257 Y109.294 E40.67729
G1 X98.804 Y109.394 E40.72113
G1 X98.383 Y109.584 E40.76478
G1 X98.014 Y109.851 E40.80782
G1 X97.705 Y110.196 E40.85159
G1 X97.473 Y110.596 E40.89529
G1 X97.328 Y111.037 E40.93916
G1 X97.28 Y111.5 E40.98315
G1 X97.328 Y111.963 E41.02713
G1 X97.468 Y112.392 E41.06978
G1 X97.705 Y112.806 E41.11486
G1 X98.025 Y113.156 E41.15967
G1 X98.398 Y113.426 E41.20319
G1 X98.824 Y113.615 E41.24723
G1 X99.282 Y113.708 E41.29139
G1 X99.743 Y113.706 E41.33496
G1 X100.196 Y113.606 E41.3788
G1 X100.617 Y113.416 E41.42245
G1 X100.986 Y113.149 E41.46549
G1 X101.295 Y112.804 E41.50926
G1 X101.527 Y112.404 E41.55295
G1 X101.672 Y111.963 E41.59682
G1 X101.72 Y111.5 E41.64081
G1 X101.672 Y111.037 E41.6848
G1 X101.527 Y110.596 E41.72867
G1 X101.294 Y110.192 E41.77274
G1 X100.975 Y109.843 E41.81742
G1 X100.602 Y109.574 E41.86088
G0 F4500 X100.401 Y109.31
G1 F1800 X100.231 Y109.141 E41.88353
G0 F4500 X99.729 Y109.134
G1 F1800 X99.636 Y109.04 E41.89603
G0 F4500 X99.237 Y109.136
G1 F1800 X99.158 Y109.058 E41.90652
G0 F4500 X98.831 Y109.226
G1 F1800 X98.75 Y109.145 E41.91735
G0 F4500 X98.478 Y109.367
G1 F1800 X98.405 Y109.295 E41.92703
G0 F4500 X98.164 Y109.548
G1 F1800 X98.095 Y109.479 E41.93626
G0 F4500 X97.815 Y109.694
G1 F1800 X97.883 Y109.762 E41.94534
G0 F4500 X97.649 Y110.023
G1 F1800 X97.581 Y109.955 E41.95443
G0 F4500 X97.382 Y110.251
G1 F1800 X97.451 Y110.32 E41.96365
G0 F4500 X97.213 Y110.577
G1 F1800 X97.288 Y110.653 E41.97374
G0 F4500 X97.091 Y110.95
G1 F1800 X97.171 Y111.03 E41.98443
G0 F4500 X97.039 Y111.393
G1 F1800 X97.124 Y111.478 E41.99579
G0 F4500 X97.074 Y111.923
G1 F1800 X97.187 Y112.036 E42.0109
G0 F4500 X97.357 Y112.702
G1 F1800 X97.826 Y113.17 E42.07351
G0 F4500 X97.949 Y113.294
G1 F1800 X98.318 Y113.663 E42.12282
G0 F4500 X98.951 Y113.8
G1 F1800 X99.072 Y113.921 E42.13899
G0 F4500 X99.509 Y113.863
G1 F1800 X99.603 Y113.958 E42.15162
G0 F4500 X99.958 Y113.818
G1 F1800 X100.038 Y113.897 E42.16225
G0 F4500 X100.346 Y113.71
G1 F1800 X100.416 Y113.781 E42.17167
G0 F4500 X100.687 Y113.557
G1 F1800 X100.757 Y113.626 E42.18096
G0 F4500 X100.974 Y113.349
G1 F1800 X101.042 Y113.417 E42.19005
