;FLAVOR:UltiGCode
;TIME:947
;MATERIAL:614
;MATERIAL2:0
;NOZZLE_DIAMETER:0.4
;MINX:93.358
;MINY:105.356
;MINZ:0.27
;MAXX:131.755
;MAXY:117.644
;MAXZ:14.97
;Generated with Cura_SteamEngine 4.5.0
M82 ;absolute extrusion mode

G92 E0
G92 E0
G10
;LAYER_COUNT:148
;LAYER:0
M107
G0 F4320 X95.449 Y106.871 Z0.27
;TYPE:SKIRT
G11
G1 F1800 X96.092 Y106.392 E0.07577
G1 X96.786 Y105.99 E0.15156
G1 X97.639 Y105.645 E0.23851
G1 X98.328 Y105.468 E0.30574
G1 X99.293 Y105.357 E0.39753
G1 X100.213 Y105.386 E0.48452
G1 X103.291 Y105.732 E0.77722
G1 X106.027 Y105.958 E1.03665
G1 X108.708 Y106.103 E1.29038
G1 X111.456 Y106.174 E1.55015
G1 X114.172 Y106.167 E1.80681
G1 X116.885 Y106.084 E2.06331
G1 X119.596 Y105.923 E2.31995
G1 X122.295 Y105.687 E2.57598
G1 X123.953 Y105.504 E2.73361
G1 X124.96 Y105.385 E2.82944
G1 X125.829 Y105.356 E2.9116
G1 X126.634 Y105.437 E2.98806
G1 X127.627 Y105.684 E3.08476
G1 X128.406 Y106.027 E3.16519
G1 X129.067 Y106.414 E3.23757
G1 X129.419 Y106.67 E3.27871
G1 X130.025 Y107.217 E3.35585
G1 X130.337 Y107.565 E3.40002
G1 X130.798 Y108.197 E3.47394
G1 X131.118 Y108.767 E3.53572
G1 X131.372 Y109.354 E3.59616
G1 X131.653 Y110.309 E3.69023
G1 X131.732 Y110.975 E3.75361
G1 X131.755 Y111.629 E3.81545
G1 X131.697 Y112.405 E3.88899
G1 X131.527 Y113.182 E3.96415
G1 X131.168 Y114.091 E4.05651
G1 X130.846 Y114.697 E4.12136
G1 X130.55 Y115.169 E4.17401
G1 X130.032 Y115.777 E4.24949
G1 X129.632 Y116.164 E4.30208
G1 X129.069 Y116.583 E4.3684
G1 X128.484 Y116.93 E4.43268
G1 X128.003 Y117.161 E4.48311
G1 X127.485 Y117.365 E4.53572
G1 X126.991 Y117.491 E4.58389
G1 X126.474 Y117.586 E4.63357
G1 X125.861 Y117.64 E4.69172
G1 X124.902 Y117.614 E4.78238
G1 X121.834 Y117.269 E5.07413
G1 X119.092 Y117.042 E5.33414
G1 X116.415 Y116.897 E5.58749
G1 X113.667 Y116.826 E5.84726
G1 X110.951 Y116.833 E6.10392
G1 X108.233 Y116.917 E6.36089
G1 X105.53 Y117.075 E6.61676
G1 X102.828 Y117.312 E6.87308
G1 X101.231 Y117.488 E7.02491
G1 X100.142 Y117.616 E7.12853
G1 X99.273 Y117.644 E7.2107
G1 X98.466 Y117.561 E7.28736
G1 X98.01 Y117.465 E7.3314
G1 X97.242 Y117.218 E7.40763
G1 X96.657 Y116.948 E7.46852
G1 X96.098 Y116.619 E7.52982
G1 X95.312 Y116.012 E7.62366
G1 X94.773 Y115.43 E7.69862
G1 X94.308 Y114.793 E7.77315
G1 X93.983 Y114.207 E7.83648
G1 X93.728 Y113.612 E7.89765
G1 X93.461 Y112.681 E7.98918
G1 X93.378 Y111.979 E8.05598
G1 X93.358 Y111.321 E8.11819
G1 X93.419 Y110.578 E8.18864
G1 X93.588 Y109.818 E8.26221
G1 X93.971 Y108.849 E8.36068
G1 X94.277 Y108.283 E8.42148
G1 X94.576 Y107.814 E8.47404
G1 X95.05 Y107.259 E8.54301
G1 X95.449 Y106.871 E8.59561
G0 F4320 X95.875 Y106.982
G1 F1800 X96.298 Y106.675 E8.645
G1 X96.929 Y106.31 E8.71388
G1 X97.739 Y105.981 E8.7965
G1 X98.388 Y105.813 E8.85986
G1 X99.294 Y105.707 E8.94606
G1 X100.17 Y105.733 E9.02887
G1 X103.258 Y106.081 E9.32254
G1 X105.979 Y106.305 E9.58054
G1 X108.715 Y106.453 E9.83947
G1 X111.448 Y106.524 E10.09783
G1 X114.184 Y106.517 E10.35638
G1 X116.882 Y106.434 E10.61146
G1 X119.61 Y106.273 E10.86971
G1 X122.364 Y106.031 E11.13096
G1 X123.963 Y105.855 E11.28298
G1 X125.002 Y105.732 E11.38185
G1 X125.831 Y105.706 E11.46023
G1 X126.563 Y105.779 E11.52975
G1 X127.531 Y106.021 E11.62404
G1 X128.26 Y106.345 E11.69943
G1 X128.861 Y106.697 E11.76525
G1 X129.213 Y106.953 E11.80638
G1 X129.765 Y107.451 E11.87663
G1 X130.077 Y107.799 E11.9208
G1 X130.495 Y108.374 E11.98798
G1 X130.809 Y108.932 E12.04848
G1 X131.04 Y109.466 E12.10347
G1 X131.313 Y110.397 E12.19515
G1 X131.384 Y111.009 E12.25337
G1 X131.405 Y111.633 E12.31237
G1 X131.349 Y112.366 E12.38184
G1 X131.194 Y113.072 E12.45015
G1 X130.859 Y113.927 E12.53693
G1 X130.537 Y114.533 E12.60178
G1 X130.253 Y114.982 E12.65198
G1 X129.771 Y115.544 E12.72195
G1 X129.2 Y116.057 E12.79449
G1 X128.332 Y116.615 E12.892
G1 X127.851 Y116.846 E12.94243
G1 X127.116 Y117.103 E13.01601
G1 X126.415 Y117.24 E13.0835
G1 X125.858 Y117.29 E13.13635
G1 X124.945 Y117.267 E13.22266
G1 X121.867 Y116.92 E13.51537
G1 X119.14 Y116.695 E13.77395
G1 X116.408 Y116.547 E14.0325
G1 X113.675 Y116.476 E14.29086
G1 X110.939 Y116.483 E14.54941
G1 X108.239 Y116.566 E14.80468
G1 X105.514 Y116.726 E15.06264
G1 X102.754 Y116.968 E15.32446
G1 X101.22 Y117.137 E15.4703
G1 X100.101 Y117.269 E15.57678
G1 X99.272 Y117.294 E15.65515
G1 X98.538 Y117.218 E15.72489
G1 X98.082 Y117.122 E15.76892
G1 X97.384 Y116.897 E15.83823
G1 X96.809 Y116.633 E15.89802
G1 X96.301 Y116.333 E15.95377
G1 X95.944 Y116.08 E15.99512
G1 X95.359 Y115.559 E16.06915
G1 X95.033 Y115.196 E16.11525
G1 X94.611 Y114.616 E16.18304
G1 X94.292 Y114.042 E16.24509
G1 X94.06 Y113.501 E16.30072
G1 X93.93 Y113.11 E16.33966
G1 X93.768 Y112.355 E16.41263
G1 X93.708 Y111.586 E16.48552
G1 X93.732 Y110.906 E16.54982
G1 X93.92 Y109.928 E16.64393
G1 X94.279 Y109.016 E16.73656
G1 X94.585 Y108.45 E16.79736
G1 X94.872 Y108.003 E16.84756
G1 X95.312 Y107.491 E16.91135
G1 X95.875 Y106.982 E16.98308
G0 F4320 X96.08 Y107.265
G1 F1800 X96.503 Y106.958 E17.03247
G1 X97.072 Y106.63 E17.09453
G1 X97.839 Y106.316 E17.17285
G1 X98.448 Y106.158 E17.23231
G1 X99.295 Y106.057 E17.31292
G1 X100.127 Y106.08 E17.39157
G1 X103.26 Y106.433 E17.68951
G1 X105.966 Y106.655 E17.94609
G1 X108.687 Y106.803 E18.2036
G1 X111.44 Y106.874 E18.46385
G1 X114.195 Y106.867 E18.7242
G1 X116.914 Y106.783 E18.98127
G1 X119.627 Y106.623 E19.23809
G1 X122.384 Y106.381 E19.49963
G1 X124.029 Y106.2 E19.65602
G1 X125.043 Y106.08 E19.75251
G1 X125.832 Y106.056 E19.82711
G1 X126.95 Y106.217 E19.93385
G1 X127.631 Y106.441 E20.00159
G1 X128.114 Y106.663 E20.05183
G1 X128.655 Y106.98 E20.11108
G1 X129.007 Y107.236 E20.15221
G1 X129.504 Y107.685 E20.21551
G1 X129.816 Y108.033 E20.25967
G1 X130.193 Y108.55 E20.32014
G1 X130.501 Y109.097 E20.37946
G1 X130.709 Y109.578 E20.42899
G1 X130.85 Y109.995 E20.47058
G1 X131.002 Y110.7 E20.53874
G1 X131.051 Y111.316 E20.59713
G1 X131.035 Y112.036 E20.66519
G1 X130.862 Y112.962 E20.75421
G1 X130.55 Y113.763 E20.83545
G1 X130.228 Y114.369 E20.90029
G1 X129.957 Y114.793 E20.94785
G1 X129.509 Y115.31 E21.0125
G1 X128.995 Y115.773 E21.07787
G1 X128.181 Y116.299 E21.16945
G1 X127.7 Y116.53 E21.21988
G1 X127.038 Y116.762 E21.28617
G1 X126.357 Y116.895 E21.35174
G1 X125.854 Y116.94 E21.39946
G1 X124.988 Y116.92 E21.48132
G1 X121.868 Y116.569 E21.77802
G1 X119.15 Y116.344 E22.03575
G1 X116.436 Y116.197 E22.2926
G1 X113.683 Y116.126 E22.55284
G1 X110.928 Y116.133 E22.81319
G1 X108.242 Y116.216 E23.06714
G1 X105.463 Y116.379 E23.33021
G1 X102.733 Y116.618 E23.58918
G1 X101.154 Y116.792 E23.7393
G1 X100.06 Y116.921 E23.8434
G1 X99.271 Y116.944 E23.91799
G1 X98.61 Y116.876 E23.98078
G1 X98.154 Y116.78 E24.02482
G1 X97.525 Y116.577 E24.08728
G1 X96.961 Y116.317 E24.14597
G1 X96.503 Y116.047 E24.19621
G1 X96.146 Y115.794 E24.23756
G1 X95.62 Y115.325 E24.30416
G1 X95.294 Y114.962 E24.35026
G1 X94.913 Y114.44 E24.41133
G1 X94.601 Y113.878 E24.47208
G1 X94.392 Y113.391 E24.52216
G1 X94.262 Y113 E24.5611
G1 X94.116 Y112.32 E24.62682
G1 X94.058 Y111.586 E24.6964
G1 X94.08 Y110.947 E24.75682
G1 X94.252 Y110.038 E24.84425
G1 X94.587 Y109.182 E24.93111
G1 X94.893 Y108.616 E24.99192
G1 X95.314 Y108.015 E25.06126
G1 X95.573 Y107.724 E25.09807
G1 X96.08 Y107.265 E25.1627
G10
;MESH:button.stl
G0 F4320 X97.953 Y108.96
G0 X98.658 Y109.978
G0 X100.233 Y110.298
;TYPE:WALL-INNER
G11
G1 F1800 X100.448 Y110.453 E25.18775
G1 X100.635 Y110.662 E25.21425
G1 X100.801 Y110.96 E25.24649
G1 X100.878 Y111.199 E25.27022
G1 X100.908 Y111.538 E25.30238
G1 X100.882 Y111.783 E25.32566
G1 X100.773 Y112.1 E25.35734
G1 X100.617 Y112.358 E25.38583
G1 X100.448 Y112.547 E25.40979
G1 X100.234 Y112.701 E25.4347
G1 X99.934 Y112.843 E25.46607
G1 X99.615 Y112.903 E25.49674
G1 X99.354 Y112.904 E25.52141
G1 X99.069 Y112.842 E25.54897
G1 X98.767 Y112.702 E25.58043
G1 X98.552 Y112.547 E25.60547
G1 X98.365 Y112.338 E25.63197
G1 X98.199 Y112.04 E25.66421
G1 X98.122 Y111.801 E25.68794
G1 X98.092 Y111.461 E25.72019
G1 X98.118 Y111.217 E25.74338
G1 X98.227 Y110.9 E25.77506
G1 X98.385 Y110.639 E25.80389
G1 X98.547 Y110.457 E25.82692
G1 X98.82 Y110.269 E25.85824
G1 X99.091 Y110.153 E25.8861
G1 X99.386 Y110.097 E25.91447
G1 X99.646 Y110.096 E25.93904
G1 X99.931 Y110.158 E25.96661
G1 X100.233 Y110.298 E25.99806
G0 F4320 X100.413 Y109.996
G1 F1800 X100.682 Y110.19 E26.0294
G1 X100.922 Y110.458 E26.0634
G1 X101.123 Y110.82 E26.10253
G1 X101.224 Y111.13 E26.13334
G1 X101.26 Y111.539 E26.17214
G1 X101.226 Y111.862 E26.20283
G1 X101.093 Y112.246 E26.24124
G1 X100.898 Y112.568 E26.27681
G1 X100.682 Y112.81 E26.30746
G1 X100.413 Y113.004 E26.3388
G1 X100.044 Y113.178 E26.37736
G1 X99.649 Y113.253 E26.41535
G1 X99.317 Y113.254 E26.44673
G1 X98.957 Y113.176 E26.48154
G1 X98.587 Y113.004 E26.52009
G1 X98.318 Y112.81 E26.55144
G1 X98.078 Y112.542 E26.58543
G1 X97.877 Y112.18 E26.62456
G1 X97.776 Y111.87 E26.65537
G1 X97.74 Y111.461 E26.69417
G1 X97.774 Y111.138 E26.72486
G1 X97.907 Y110.754 E26.76327
G1 X98.104 Y110.429 E26.79918
G1 X98.314 Y110.193 E26.82903
G1 X98.649 Y109.961 E26.86754
G1 X98.989 Y109.816 E26.90247
G1 X99.352 Y109.747 E26.93739
G1 X99.683 Y109.746 E26.96867
G1 X100.043 Y109.824 E27.00348
G1 X100.413 Y109.996 E27.04204
G0 F4320 X100.58 Y109.716
;TYPE:WALL-OUTER
G1 F1800 X100.9 Y109.946 E27.07928
G1 X101.188 Y110.268 E27.1201
G1 X101.422 Y110.69 E27.1657
G1 X101.545 Y111.065 E27.203
G1 X101.586 Y111.54 E27.24805
G1 X101.545 Y111.933 E27.28539
G1 X101.389 Y112.385 E27.33058
G1 X101.16 Y112.763 E27.37234
G1 X100.9 Y113.054 E27.40922
G1 X100.581 Y113.284 E27.44638
G1 X100.145 Y113.489 E27.49191
G1 X99.679 Y113.578 E27.53675
G1 X99.282 Y113.579 E27.57426
G1 X98.854 Y113.487 E27.61563
G1 X98.42 Y113.284 E27.66091
G1 X98.1 Y113.054 E27.69815
G1 X97.812 Y112.732 E27.73897
G1 X97.578 Y112.31 E27.78457
G1 X97.455 Y111.935 E27.82187
G1 X97.414 Y111.46 E27.86692
G1 X97.455 Y111.067 E27.90426
G1 X97.611 Y110.615 E27.94945
G1 X97.84 Y110.237 E27.99121
G1 X98.099 Y109.947 E28.02796
G1 X98.491 Y109.675 E28.07305
G1 X98.894 Y109.504 E28.11442
G1 X99.322 Y109.422 E28.1556
G1 X99.718 Y109.421 E28.19302
G1 X100.146 Y109.513 E28.23439
G1 X100.58 Y109.716 E28.27967
G0 F4320 X100.742 Y109.832
G0 X100.217 Y110.706
;TYPE:SKIN
G1 F1800 X100.357 Y110.861 E28.29941
G1 X100.485 Y111.093 E28.32445
G1 X100.544 Y111.271 E28.34217
G1 X100.567 Y111.532 E28.36693
G1 X100.548 Y111.709 E28.38375
G1 X100.464 Y111.954 E28.40822
G1 X100.342 Y112.156 E28.43052
G1 X100.22 Y112.291 E28.44772
G1 X100.057 Y112.41 E28.46679
G1 X99.83 Y112.517 E28.49051
G1 X99.584 Y112.563 E28.51416
G1 X99.388 Y112.564 E28.53268
G1 X99.181 Y112.519 E28.5527
G1 X98.935 Y112.405 E28.57832
G1 X98.783 Y112.294 E28.59611
G1 X98.643 Y112.139 E28.61584
G1 X98.515 Y111.907 E28.64088
G1 X98.456 Y111.727 E28.65878
G1 X98.433 Y111.468 E28.68335
G1 X98.452 Y111.29 E28.70027
G1 X98.536 Y111.046 E28.72466
G1 X98.66 Y110.841 E28.7473
G1 X98.775 Y110.712 E28.76363
G1 X98.981 Y110.571 E28.78722
G1 X99.194 Y110.479 E28.80915
G1 X99.418 Y110.437 E28.83068
G1 X99.612 Y110.436 E28.84902
G1 X99.819 Y110.481 E28.86903
G1 X100.065 Y110.595 E28.89466
G1 X100.217 Y110.706 E28.91244
G0 F4320 X99.733 Y110.622
G1 F1800 X100.378 Y111.267 E28.99864
G0 F4320 X100.367 Y111.751
G1 F1800 X99.245 Y110.629 E29.14859
G0 F4320 X98.922 Y110.801
G1 F1800 X100.199 Y112.079 E29.31932
G0 F4320 X99.923 Y112.297
G1 F1800 X98.7 Y111.075 E29.4827
G0 F4320 X98.591 Y111.46
G1 F1800 X99.535 Y112.405 E29.60892
G1 X99.597 Y112.467
G10
;MESH:button.stl(1)
G0 F4320 X101.207 Y111.858
G0 X102.441 Y111.985
G0 X122.866 Y110.358
G0 X124.038 Y110.763
G0 X126.349 Y110.3
;TYPE:WALL-INNER
G11
G1 F1800 X126.561 Y110.453 E29.63363
G1 X126.75 Y110.663 E29.66033
G1 X126.913 Y110.958 E29.69218
G1 X126.991 Y111.198 E29.71603
G1 X127.021 Y111.539 E29.74838
G1 X126.995 Y111.785 E29.77175
G1 X126.887 Y112.099 E29.80313
G1 X126.731 Y112.357 E29.83162
G1 X126.555 Y112.553 E29.85652
G1 X126.356 Y112.697 E29.87973
G1 X126.047 Y112.842 E29.91198
G1 X125.728 Y112.903 E29.94268
G1 X125.467 Y112.904 E29.96734
G1 X125.185 Y112.843 E29.99461
G1 X124.878 Y112.7 E30.02661
G1 X124.666 Y112.547 E30.05132
G1 X124.477 Y112.337 E30.07802
G1 X124.314 Y112.042 E30.10987
G1 X124.236 Y111.802 E30.13371
G1 X124.206 Y111.461 E30.16606
G1 X124.232 Y111.215 E30.18944
G1 X124.34 Y110.901 E30.22082
G1 X124.496 Y110.643 E30.24931
G1 X124.663 Y110.456 E30.273
G1 X124.934 Y110.268 E30.30417
G1 X125.205 Y110.153 E30.33199
G1 X125.5 Y110.097 E30.36037
G1 X125.76 Y110.096 E30.38494
G1 X126.042 Y110.157 E30.4122
G1 X126.349 Y110.3 E30.44421
G0 F4320 X126.529 Y109.998
G1 F1800 X126.795 Y110.19 E30.47521
G1 X127.037 Y110.459 E30.5094
G1 X127.236 Y110.818 E30.54819
G1 X127.337 Y111.129 E30.57909
G1 X127.373 Y111.539 E30.61798
G1 X127.339 Y111.864 E30.64886
G1 X127.207 Y112.245 E30.68697
G1 X127.012 Y112.567 E30.72254
G1 X126.792 Y112.813 E30.75373
G1 X126.531 Y113.002 E30.78418
G1 X126.157 Y113.178 E30.82324
G1 X125.762 Y113.253 E30.86124
G1 X125.431 Y113.254 E30.89252
G1 X125.073 Y113.177 E30.92712
G1 X124.698 Y113.002 E30.96623
G1 X124.432 Y112.81 E30.99723
G1 X124.19 Y112.541 E31.03142
G1 X123.991 Y112.182 E31.07021
G1 X123.89 Y111.871 E31.10111
G1 X123.854 Y111.461 E31.14001
G1 X123.888 Y111.136 E31.17089
G1 X124.02 Y110.755 E31.20899
G1 X124.215 Y110.433 E31.24456
G1 X124.429 Y110.193 E31.27495
G1 X124.764 Y109.96 E31.31351
G1 X125.103 Y109.816 E31.34832
G1 X125.466 Y109.747 E31.38324
G1 X125.796 Y109.746 E31.41442
G1 X126.154 Y109.823 E31.44903
G1 X126.529 Y109.998 E31.48813
G0 F4320 X126.694 Y109.716
;TYPE:WALL-OUTER
G1 F1800 X127.013 Y109.946 E31.5253
G1 X127.302 Y110.268 E31.56618
G1 X127.536 Y110.691 E31.61187
G1 X127.658 Y111.064 E31.64895
G1 X127.699 Y111.54 E31.6941
G1 X127.658 Y111.935 E31.73163
G1 X127.503 Y112.384 E31.77652
G1 X127.274 Y112.762 E31.81828
G1 X127.013 Y113.054 E31.85529
G1 X126.695 Y113.284 E31.89238
G1 X126.258 Y113.489 E31.93799
G1 X125.792 Y113.578 E31.98283
G1 X125.396 Y113.579 E32.02025
G1 X124.968 Y113.487 E32.06162
G1 X124.533 Y113.284 E32.10698
G1 X124.214 Y113.054 E32.14415
G1 X123.925 Y112.732 E32.18503
G1 X123.691 Y112.309 E32.23072
G1 X123.569 Y111.936 E32.2678
G1 X123.528 Y111.46 E32.31295
G1 X123.569 Y111.065 E32.35048
G1 X123.724 Y110.616 E32.39537
G1 X123.953 Y110.238 E32.43713
G1 X124.213 Y109.947 E32.47401
G1 X124.604 Y109.675 E32.51902
G1 X125.008 Y109.504 E32.56048
G1 X125.436 Y109.422 E32.60166
G1 X125.831 Y109.421 E32.63898
G1 X126.259 Y109.513 E32.68035
G1 X126.694 Y109.716 E32.72572
G0 F4320 X126.856 Y109.833
G0 X126.333 Y110.709
;TYPE:SKIN
G1 F1800 X126.472 Y110.862 E32.74525
G1 X126.6 Y111.094 E32.77029
G1 X126.657 Y111.268 E32.78759
G1 X126.68 Y111.533 E32.81273
G1 X126.661 Y111.711 E32.82965
G1 X126.578 Y111.953 E32.85382
G1 X126.456 Y112.155 E32.87612
G1 X126.33 Y112.295 E32.89392
G1 X126.174 Y112.407 E32.91207
G1 X125.945 Y112.516 E32.93604
G1 X125.694 Y112.563 E32.96017
G1 X125.501 Y112.564 E32.97841
G1 X125.295 Y112.52 E32.99832
G1 X125.053 Y112.406 E33.02359
G1 X124.894 Y112.291 E33.04214
G1 X124.755 Y112.138 E33.06167
G1 X124.627 Y111.906 E33.08671
G1 X124.57 Y111.731 E33.1041
G1 X124.547 Y111.467 E33.12915
G1 X124.566 Y111.289 E33.14606
G1 X124.648 Y111.05 E33.16994
G1 X124.772 Y110.846 E33.1925
G1 X124.89 Y110.712 E33.20937
G1 X125.101 Y110.567 E33.23357
G1 X125.304 Y110.48 E33.25444
G1 X125.534 Y110.437 E33.27655
G1 X125.726 Y110.436 E33.2947
G1 X125.932 Y110.48 E33.3146
G1 X126.174 Y110.594 E33.33988
G1 X126.333 Y110.709 E33.35842
G0 F4320 X126.056 Y110.712
G1 F1800 X126.398 Y111.054 E33.40413
G0 F4320 X126.508 Y111.659
G1 F1800 X125.459 Y110.61 E33.54432
G0 F4320 X125.106 Y110.752
G1 F1800 X126.361 Y112.007 E33.71204
G0 F4320 X126.115 Y112.256
G1 F1800 X124.86 Y111 E33.87983
G0 F4320 X124.715 Y111.351
G1 F1800 X125.755 Y112.391 E34.01882
G0 F4320 X125.145 Y112.276
G1 F1800 X124.841 Y111.971 E34.05952
G10
;MESH:NONMESH
G0 F600 X124.841 Y111.971 Z0.37
G0 F4320 X123.874 Y111.461
G0 X122.64 Y111.334
G0 X102.282 Y110.439
G0 X101.105 Y110.827
G0 X100.27 Y110.173
;TIME_ELAPSED:18.266401
;LAYER:1
M106 S255
;TYPE:WALL-INNER
;MESH:button.stl
G11
G1 F1785.7 X100.53 Y110.362 E34.07077
