(Generated with: DXF2GCODE, Version: Py3.5.2 PyQt5.14.1, Date: $Date: Fri Oct 25 20:45:56 2019 +0200 $)
(Created from file: side_cutout_right.dxf)
(Output format description: G-CODE for LinuxCNC)
(Time: Wed Aug  5 00:19:52 2020)
G21 (Units in millimeters)
G90 (Absolute programming)
G64 (Default cutting) G17 (XY plane) G40 (Cancel radius comp.) G49 (Cancel length comp.)
G0 Z  15.000 

(*** LAYER: outline ***)
T1 M6
S6000

(* SHAPE Nr: 7 *)
G0 X -21.360 Y  -2.100
M3 M8
G42
F400
G1 X -19.860 Y  -0.600
G2 X -16.860 Y  -3.600 I  -0.000 J  -3.000
G0 Z   3.000 
F150
G1 Z  -1.500
F400
G2 X -18.360 Y  -5.100 I  -1.500 J   0.000
G1 X -35.640 Y  -5.100
G2 X -37.140 Y  -3.600 I   0.000 J   1.500
G1 X -37.140 Y   6.000
G2 X -35.640 Y   7.500 I   1.500 J   0.000
G1 X -18.360 Y   7.500
G2 X -16.860 Y   6.000 I  -0.000 J  -1.500
G1 X -16.860 Y  -3.600
F150
G1 Z  -3.000
F400
G2 X -18.360 Y  -5.100 I  -1.500 J   0.000
G1 X -35.640 Y  -5.100
G2 X -37.140 Y  -3.600 I   0.000 J   1.500
G1 X -37.140 Y   6.000
G2 X -35.640 Y   7.500 I   1.500 J   0.000
G1 X -18.360 Y   7.500
G2 X -16.860 Y   6.000 I  -0.000 J  -1.500
G1 X -16.860 Y  -3.600
F150
G1 Z   3.000
G0 Z  20.000 
G40
M9 M5

(* SHAPE Nr: 5 *)
G0 X -10.828 Y  -1.507
M3 M8
G42
F400
G1 X -10.828 Y   0.614
G2 X  -6.586 Y   0.614 I   2.121 J  -2.121
G0 Z   3.000 
F150
G1 Z   3.000
F400
G2 X  -6.586 Y   0.614 I   1.414 J   1.414
G2 X  -9.414 Y  -2.214 I  -1.414 J  -1.414
F150
G1 Z  -3.000
F200
G2 X  -6.586 Y   0.614 I   1.414 J   1.414
G2 X  -9.414 Y  -2.214 I  -1.414 J  -1.414
F150
G1 Z   3.000
G0 Z  20.000 
G40
M9 M5

(* SHAPE Nr: 6 *)
G0 X  12.480 Y  -2.600
M3 M8
G42
F400
G1 X  10.980 Y  -4.100
G2 X   7.980 Y  -1.100 I   0.000 J   3.000
G0 Z   3.000 
F150
G1 Z  -1.500
F400
G1 X   7.980 Y   4.850
G2 X   9.480 Y   6.350 I   1.500 J   0.000
G1 X  38.520 Y   6.350
G2 X  40.020 Y   4.850 I   0.000 J  -1.500
G1 X  40.020 Y  -1.100
G2 X  38.520 Y  -2.600 I  -1.500 J   0.000
G1 X  36.870 Y  -2.600
G2 X  32.870 Y  -2.600 I  -2.000 J   0.000
G1 X  15.130 Y  -2.600
G2 X  11.130 Y  -2.600 I  -2.000 J   0.000
G1 X   9.480 Y  -2.600
G2 X   7.980 Y  -1.100 I   0.000 J   1.500
F150
G1 Z  -3.000
F400
G1 X   7.980 Y   4.850
G2 X   9.480 Y   6.350 I   1.500 J   0.000
G1 X  38.520 Y   6.350
G2 X  40.020 Y   4.850 I   0.000 J  -1.500
G1 X  40.020 Y  -1.100
G2 X  38.520 Y  -2.600 I  -1.500 J   0.000
G1 X  36.870 Y  -2.600
G2 X  32.870 Y  -2.600 I  -2.000 J   0.000
G1 X  15.130 Y  -2.600
G2 X  11.130 Y  -2.600 I  -2.000 J   0.000
G1 X   9.480 Y  -2.600
G2 X   7.980 Y  -1.100 I   0.000 J   1.500
F150
G1 Z   3.000
G0 Z  20.000 
G40
M9 M5
G0 X   0.000 Y   0.000
M2 (Program end)
