(Generated with: DXF2GCODE, Version: Py3.5.2 PyQt5.14.1, Date: $Date: Fri Oct 25 20:45:56 2019 +0200 $)
(Created from file: side_cutout.dxf)
(Output format description: G-CODE for LinuxCNC)
(Time: Sun Mar 29 15:01:05 2020)
G21 (Units in millimeters)
G90 (Absolute programming)
G64 (Default cutting) G17 (XY plane) G40 (Cancel radius comp.) G49 (Cancel length comp.)
G0 Z  15.000

(*** LAYER: outline ***)
T1 M6
S6000

(* SHAPE Nr: 5 *)
G0 X -28.100 Y   0.400
M3 M8
G42
F200
G1 X -26.600 Y   1.900
G2 X -23.600 Y  -1.100 I   0.000 J  -3.000
G0 Z  10.000
F100
G1 Z   5.300
F200
G2 X -25.100 Y  -2.600 I  -1.500 J   0.000
G1 X -26.750 Y  -2.600
G2 X -30.750 Y  -2.600 I  -2.000 J   0.000
G1 X -33.250 Y  -2.600
G2 X -37.250 Y  -2.600 I  -2.000 J   0.000
G1 X -38.900 Y  -2.600
G2 X -40.400 Y  -1.100 I   0.000 J   1.500
G1 X -40.400 Y   4.850
G2 X -38.900 Y   6.350 I   1.500 J   0.000
G1 X -25.100 Y   6.350
G2 X -23.600 Y   4.850 I   0.000 J  -1.500
G1 X -23.600 Y  -1.100
F100
G1 Z   3.600
F200
G2 X -25.100 Y  -2.600 I  -1.500 J   0.000
G1 X -26.750 Y  -2.600
G2 X -30.750 Y  -2.600 I  -2.000 J   0.000
G1 X -33.250 Y  -2.600
G2 X -37.250 Y  -2.600 I  -2.000 J   0.000
G1 X -38.900 Y  -2.600
G2 X -40.400 Y  -1.100 I   0.000 J   1.500
G1 X -40.400 Y   4.850
G2 X -38.900 Y   6.350 I   1.500 J   0.000
G1 X -25.100 Y   6.350
G2 X -23.600 Y   4.850 I   0.000 J  -1.500
G1 X -23.600 Y  -1.100
F100
G1 Z   2.000
F200
G2 X -25.100 Y  -2.600 I  -1.500 J   0.000
G1 X -26.750 Y  -2.600
G2 X -30.750 Y  -2.600 I  -2.000 J   0.000
G1 X -33.250 Y  -2.600
G2 X -37.250 Y  -2.600 I  -2.000 J   0.000
G1 X -38.900 Y  -2.600
G2 X -40.400 Y  -1.100 I   0.000 J   1.500
G1 X -40.400 Y   4.850
G2 X -38.900 Y   6.350 I   1.500 J   0.000
G1 X -25.100 Y   6.350
G2 X -23.600 Y   4.850 I   0.000 J  -1.500
G1 X -23.600 Y  -1.100
F100
G1 Z  10.000
G0 Z  20.000
G40
M9 M5

(* SHAPE Nr: 6 *)
G0 X  33.700 Y  -2.600
M3 M8
G42
F200
G1 X  32.200 Y  -4.100
G2 X  29.200 Y  -1.100 I   0.000 J   3.000
G0 Z  10.000
F100
G1 Z   5.300
F200
G1 X  29.200 Y   4.850
G2 X  30.700 Y   6.350 I   1.500 J   0.000
G1 X  39.300 Y   6.350
G2 X  40.800 Y   4.850 I   0.000 J  -1.500
G1 X  40.800 Y  -1.100
G2 X  39.300 Y  -2.600 I  -1.500 J   0.000
G1 X  37.500 Y  -2.600
G2 X  33.500 Y  -2.600 I  -2.000 J   0.000
G1 X  30.700 Y  -2.600
G2 X  29.200 Y  -1.100 I   0.000 J   1.500
F100
G1 Z   3.600
F200
G1 X  29.200 Y   4.850
G2 X  30.700 Y   6.350 I   1.500 J   0.000
G1 X  39.300 Y   6.350
G2 X  40.800 Y   4.850 I   0.000 J  -1.500
G1 X  40.800 Y  -1.100
G2 X  39.300 Y  -2.600 I  -1.500 J   0.000
G1 X  37.500 Y  -2.600
G2 X  33.500 Y  -2.600 I  -2.000 J   0.000
G1 X  30.700 Y  -2.600
G2 X  29.200 Y  -1.100 I   0.000 J   1.500
F100
G1 Z   2.000
F200
G1 X  29.200 Y   4.850
G2 X  30.700 Y   6.350 I   1.500 J   0.000
G1 X  39.300 Y   6.350
G2 X  40.800 Y   4.850 I   0.000 J  -1.500
G1 X  40.800 Y  -1.100
G2 X  39.300 Y  -2.600 I  -1.500 J   0.000
G1 X  37.500 Y  -2.600
G2 X  33.500 Y  -2.600 I  -2.000 J   0.000
G1 X  30.700 Y  -2.600
G2 X  29.200 Y  -1.100 I   0.000 J   1.500
F100
G1 Z  10.000
G0 Z  20.000
G40
M9 M5

(* SHAPE Nr: 7 *)
G0 X -13.700 Y   1.600
M3 M8
G42
F200
G1 X -12.200 Y   0.100
G2 X -15.200 Y  -2.900 I  -3.000 J   0.000
G0 Z  10.000
F100
G1 Z   5.300
F200
G2 X -16.700 Y  -1.400 I   0.000 J   1.500
G1 X -16.700 Y   4.850
G2 X -15.200 Y   6.350 I   1.500 J   0.000
G1 X  15.200 Y   6.350
G2 X  16.700 Y   4.850 I   0.000 J  -1.500
G1 X  16.700 Y  -1.400
G2 X  15.200 Y  -2.900 I  -1.500 J   0.000
G1 X -15.200 Y  -2.900
F100
G1 Z   3.600
F200
G2 X -16.700 Y  -1.400 I   0.000 J   1.500
G1 X -16.700 Y   4.850
G2 X -15.200 Y   6.350 I   1.500 J   0.000
G1 X  15.200 Y   6.350
G2 X  16.700 Y   4.850 I   0.000 J  -1.500
G1 X  16.700 Y  -1.400
G2 X  15.200 Y  -2.900 I  -1.500 J   0.000
G1 X -15.200 Y  -2.900
F100
G1 Z   2.000
F200
G2 X -16.700 Y  -1.400 I   0.000 J   1.500
G1 X -16.700 Y   4.850
G2 X -15.200 Y   6.350 I   1.500 J   0.000
G1 X  15.200 Y   6.350
G2 X  16.700 Y   4.850 I   0.000 J  -1.500
G1 X  16.700 Y  -1.400
G2 X  15.200 Y  -2.900 I  -1.500 J   0.000
G1 X -15.200 Y  -2.900
F100
G1 Z  10.000
G0 Z  20.000
G40
M9 M5
G0 X   0.000 Y   0.000
M2 (Program end)
