;FLAVOR:UltiGCode
;TIME:166
;MATERIAL:93
;MATERIAL2:0
;NOZZLE_DIAMETER:0.4
;MINX:103.958
;MINY:103.338
;MINZ:0.27
;MAXX:119.042
;MAXY:118.425
;MAXZ:5.47
;Generated with Cura_SteamEngine 4.5.0
M82 ;absolute extrusion mode

G92 E0
G92 E0
G10
;LAYER_COUNT:53
;LAYER:0
M107
G0 F4320 X106.464 Y105.252 Z0.27
;TYPE:SKIRT
G11
G1 F1800 X106.861 Y104.935 E0.04801
G1 X107.274 Y104.637 E0.09614
G1 X107.823 Y104.29 E0.15751
G1 X108.636 Y103.909 E0.24236
G1 X109.245 Y103.681 E0.30381
G1 X110.213 Y103.455 E0.39775
G1 X110.855 Y103.359 E0.45909
G1 X111.724 Y103.338 E0.54123
G1 X112.372 Y103.376 E0.60257
G1 X113.279 Y103.547 E0.6898
G1 X113.905 Y103.72 E0.75117
G1 X114.573 Y103.994 E0.8194
G1 X114.948 Y104.172 E0.85863
G1 X115.705 Y104.618 E0.94166
G1 X116.563 Y105.273 E1.04366
G1 X116.923 Y105.634 E1.09184
G1 X117.66 Y106.509 E1.19995
G1 X118.021 Y107.09 E1.26459
G1 X118.235 Y107.482 E1.3068
G1 X118.586 Y108.291 E1.39013
G1 X118.892 Y109.324 E1.49194
G1 X118.973 Y109.848 E1.54205
G1 X119.042 Y110.795 E1.63178
G1 X119.006 Y111.677 E1.7152
G1 X118.856 Y112.604 E1.80394
G1 X118.634 Y113.328 E1.8755
G1 X118.273 Y114.171 E1.96216
G1 X117.963 Y114.749 E2.02414
G1 X117.621 Y115.301 E2.08551
G1 X117.254 Y115.763 E2.14127
G1 X116.535 Y116.512 E2.23938
G1 X115.73 Y117.123 E2.33488
G1 X115.182 Y117.471 E2.39623
G1 X114.415 Y117.835 E2.47646
G1 X113.775 Y118.074 E2.54102
G1 X112.917 Y118.292 E2.62467
G1 X111.712 Y118.425 E2.73924
G1 X110.628 Y118.388 E2.84174
G1 X109.721 Y118.217 E2.92896
G1 X109.095 Y118.044 E2.99033
G1 X108.417 Y117.765 E3.05962
G1 X108.058 Y117.596 E3.09711
G1 X107.289 Y117.143 E3.18145
G1 X106.426 Y116.482 E3.28418
G1 X106.053 Y116.105 E3.3343
G1 X105.324 Y115.232 E3.44178
G1 X104.981 Y114.677 E3.50343
G1 X104.75 Y114.251 E3.54923
G1 X104.401 Y113.439 E3.63275
G1 X104.104 Y112.422 E3.73287
G1 X104.027 Y111.915 E3.78133
G1 X103.958 Y110.968 E3.87106
G1 X103.995 Y110.082 E3.95486
G1 X104.145 Y109.157 E4.04341
G1 X104.371 Y108.419 E4.11635
G1 X104.74 Y107.565 E4.20427
G1 X105.046 Y106.999 E4.26507
G1 X105.389 Y106.448 E4.3264
G1 X105.742 Y106.005 E4.37993
G1 X106.464 Y105.252 E4.47852
G0 F4320 X106.711 Y105.501
G1 F1800 X107.479 Y104.921 E4.56946
G1 X108.01 Y104.587 E4.62874
G1 X108.779 Y104.228 E4.70894
G1 X109.367 Y104.01 E4.76821
G1 X110.286 Y103.797 E4.85735
G1 X110.907 Y103.706 E4.91666
G1 X111.724 Y103.688 E4.99389
G1 X112.351 Y103.726 E5.05325
G1 X113.207 Y103.89 E5.13561
G1 X113.811 Y104.058 E5.19486
G1 X114.431 Y104.314 E5.25825
G1 X115.503 Y104.903 E5.37383
G1 X116.343 Y105.546 E5.4738
G1 X116.995 Y106.236 E5.56351
G1 X117.386 Y106.727 E5.62283
G1 X117.718 Y107.266 E5.68265
G1 X117.927 Y107.648 E5.7238
G1 X118.254 Y108.403 E5.80155
G1 X118.554 Y109.415 E5.9013
G1 X118.666 Y110.294 E5.98503
G1 X118.692 Y110.795 E6.03244
G1 X118.658 Y111.636 E6.11198
G1 X118.511 Y112.542 E6.19872
G1 X118.302 Y113.218 E6.26558
G1 X117.964 Y114.006 E6.34661
G1 X117.654 Y114.584 E6.40859
G1 X117.323 Y115.117 E6.46788
G1 X116.993 Y115.53 E6.51784
G1 X116.288 Y116.262 E6.61388
G1 X115.525 Y116.84 E6.70434
G1 X114.995 Y117.175 E6.76359
G1 X114.272 Y117.516 E6.83913
G1 X113.674 Y117.738 E6.89941
G1 X112.857 Y117.947 E6.9791
G1 X111.711 Y118.075 E7.08807
G1 X110.649 Y118.037 E7.18849
G1 X109.793 Y117.874 E7.27084
G1 X109.189 Y117.706 E7.33008
G1 X108.559 Y117.445 E7.39453
G1 X107.491 Y116.857 E7.50974
G1 X106.647 Y116.21 E7.61023
G1 X105.987 Y115.508 E7.70129
G1 X105.599 Y115.015 E7.76058
G1 X105.283 Y114.5 E7.81767
G1 X105.058 Y114.087 E7.86212
G1 X104.733 Y113.328 E7.94014
G1 X104.443 Y112.332 E8.03817
G1 X104.333 Y111.466 E8.12067
G1 X104.308 Y110.703 E8.19281
G1 X104.342 Y110.124 E8.24762
G1 X104.49 Y109.22 E8.33419
G1 X104.704 Y108.529 E8.40254
G1 X105.048 Y107.732 E8.48458
G1 X105.354 Y107.166 E8.54538
G1 X105.687 Y106.634 E8.60469
G1 X106.004 Y106.238 E8.65263
G1 X106.711 Y105.501 E8.74914
G0 F4320 X106.958 Y105.75
G1 F1800 X107.684 Y105.205 E8.83493
G1 X108.197 Y104.884 E8.89211
G1 X108.921 Y104.548 E8.96754
G1 X109.489 Y104.339 E9.02473
G1 X110.359 Y104.14 E9.10907
G1 X110.957 Y104.053 E9.16618
G1 X111.725 Y104.038 E9.23877
G1 X112.329 Y104.077 E9.29596
G1 X113.134 Y104.232 E9.37343
G1 X113.717 Y104.396 E9.43067
G1 X114.29 Y104.634 E9.4893
G1 X115.301 Y105.189 E9.59829
G1 X116.123 Y105.819 E9.69616
G1 X116.736 Y106.471 E9.78073
G1 X117.111 Y106.945 E9.83784
G1 X117.416 Y107.443 E9.89303
G1 X117.618 Y107.813 E9.93287
G1 X117.923 Y108.515 E10.0052
G1 X118.215 Y109.506 E10.10283
G1 X118.318 Y110.33 E10.1813
G1 X118.342 Y111.059 E10.25023
G1 X118.31 Y111.595 E10.30097
G1 X118.166 Y112.478 E10.38552
G1 X117.969 Y113.109 E10.44798
G1 X117.656 Y113.84 E10.52313
G1 X117.346 Y114.418 E10.58511
G1 X117.025 Y114.931 E10.6423
G1 X116.472 Y115.589 E10.72352
G1 X116.041 Y116.013 E10.78066
G1 X115.319 Y116.557 E10.86608
G1 X114.807 Y116.879 E10.92324
G1 X114.129 Y117.197 E10.99401
G1 X113.574 Y117.403 E11.04995
G1 X112.797 Y117.603 E11.12577
G1 X111.71 Y117.725 E11.22914
G1 X110.671 Y117.687 E11.32739
G1 X109.866 Y117.532 E11.40486
G1 X109.283 Y117.368 E11.46209
G1 X108.701 Y117.125 E11.52169
G1 X107.694 Y116.572 E11.63026
G1 X106.868 Y115.937 E11.72872
G1 X106.248 Y115.274 E11.8145
G1 X105.875 Y114.798 E11.87164
G1 X105.585 Y114.324 E11.92416
G1 X105.367 Y113.922 E11.96737
G1 X105.065 Y113.218 E12.03976
G1 X104.782 Y112.243 E12.1357
G1 X104.681 Y111.431 E12.21303
G1 X104.658 Y110.703 E12.28186
G1 X104.69 Y110.165 E12.33279
G1 X104.834 Y109.283 E12.41724
G1 X105.036 Y108.639 E12.48102
G1 X105.356 Y107.898 E12.5573
G1 X105.662 Y107.332 E12.6181
G1 X105.984 Y106.82 E12.67526
G1 X106.527 Y106.175 E12.75493
G1 X106.958 Y105.75 E12.81213
G0 F4320 X107.204 Y106.001
G1 F1800 X107.889 Y105.489 E12.89295
G1 X108.642 Y105.056 E12.97504
G1 X109.609 Y104.668 E13.0735
G1 X110.432 Y104.482 E13.15323
G1 X111.007 Y104.4 E13.20812
G1 X111.726 Y104.388 E13.27608
G1 X112.306 Y104.427 E13.33101
G1 X113.062 Y104.575 E13.40381
G1 X113.621 Y104.733 E13.4587
G1 X114.148 Y104.954 E13.51271
G1 X115.099 Y105.475 E13.61518
G1 X115.901 Y106.091 E13.71074
G1 X116.476 Y106.706 E13.79031
G1 X116.835 Y107.162 E13.84515
G1 X117.114 Y107.619 E13.89575
G1 X117.591 Y108.627 E14.00113
G1 X117.876 Y109.595 E14.09649
G1 X117.97 Y110.365 E14.1698
G1 X117.992 Y111.059 E14.23541
G1 X117.929 Y111.842 E14.30964
G1 X117.746 Y112.669 E14.38969
G1 X117.347 Y113.675 E14.49196
G1 X117.037 Y114.253 E14.55394
G1 X116.728 Y114.745 E14.60884
G1 X116.211 Y115.356 E14.68448
G1 X115.796 Y115.762 E14.73934
G1 X115.114 Y116.273 E14.81987
G1 X114.621 Y116.581 E14.87481
G1 X113.985 Y116.877 E14.9411
G1 X113.473 Y117.068 E14.99274
G1 X112.736 Y117.258 E15.06466
G1 X111.71 Y117.375 E15.16225
G1 X110.694 Y117.337 E15.25833
G1 X109.938 Y117.189 E15.33113
G1 X109.379 Y117.031 E15.38602
G1 X108.843 Y116.805 E15.44099
G1 X107.896 Y116.286 E15.54304
G1 X107.089 Y115.665 E15.63927
G1 X106.509 Y115.041 E15.71978
G1 X106.008 Y114.354 E15.80013
G1 X105.676 Y113.758 E15.8646
G1 X105.397 Y113.107 E15.93153
G1 X105.121 Y112.155 E16.0252
G1 X105.03 Y111.395 E16.09753
G1 X105.008 Y110.703 E16.16296
G1 X105.071 Y109.919 E16.23729
G1 X105.255 Y109.09 E16.31753
G1 X105.663 Y108.065 E16.42179
G1 X105.969 Y107.499 E16.48259
G1 X106.28 Y107.008 E16.53751
G1 X106.789 Y106.407 E16.61194
G1 X107.204 Y106.001 E16.6668
G0 F4320 X107.449 Y106.251
G1 F1800 X108.094 Y105.773 E16.74267
G1 X108.784 Y105.375 E16.81794
G1 X109.206 Y105.187 E16.8616
G1 X109.975 Y104.937 E16.93802
G1 X110.505 Y104.824 E16.98923
G1 X111.304 Y104.739 E17.06516
G1 X111.727 Y104.738 E17.10513
G1 X112.99 Y104.917 E17.22568
G1 X113.758 Y105.164 E17.30192
G1 X114.341 Y105.433 E17.36259
G1 X114.897 Y105.76 E17.42355
G1 X115.679 Y106.363 E17.51686
G1 X116.217 Y106.94 E17.59142
G1 X116.69 Y107.587 E17.66715
G1 X117.002 Y108.144 E17.72748
G1 X117.26 Y108.739 E17.78877
G1 X117.536 Y109.684 E17.8818
G1 X117.622 Y110.401 E17.95005
G1 X117.642 Y111.059 E18.01226
G1 X117.581 Y111.801 E18.08261
G1 X117.414 Y112.559 E18.15596
G1 X117.039 Y113.509 E18.25248
G1 X116.729 Y114.087 E18.31446
G1 X116.431 Y114.558 E18.36713
G1 X115.95 Y115.123 E18.43725
G1 X115.551 Y115.511 E18.48984
G1 X114.908 Y115.99 E18.56561
G1 X114.215 Y116.391 E18.64127
G1 X113.372 Y116.733 E18.72724
G1 X112.676 Y116.913 E18.79518
G1 X111.709 Y117.025 E18.88717
G1 X111.273 Y117.026 E18.92837
G1 X110.466 Y116.943 E19.00504
G1 X110.01 Y116.847 E19.04907
G1 X109.236 Y116.597 E19.12594
G1 X108.664 Y116.333 E19.18547
G1 X108.098 Y116.001 E19.24748
G1 X107.312 Y115.394 E19.34133
G1 X106.769 Y114.807 E19.4169
G1 X106.311 Y114.178 E19.49042
G1 X105.985 Y113.593 E19.55371
G1 X105.729 Y112.996 E19.6151
G1 X105.461 Y112.067 E19.70647
G1 X105.378 Y111.36 E19.77374
G1 X105.358 Y110.703 E19.83585
G1 X105.419 Y109.96 E19.9063
G1 X105.588 Y109.2 E19.97988
G1 X105.971 Y108.231 E20.07834
G1 X106.277 Y107.665 E20.13914
G1 X106.576 Y107.196 E20.1917
G1 X107.051 Y106.64 E20.26081
G1 X107.449 Y106.251 E20.3134
G0 F4320 X107.885 Y106.354
G1 F1800 X108.298 Y106.056 E20.36153
G1 X108.927 Y105.695 E20.43006
G1 X109.349 Y105.507 E20.47372
G1 X110.048 Y105.279 E20.5432
G1 X110.578 Y105.166 E20.59441
G1 X111.305 Y105.089 E20.6635
G1 X111.728 Y105.088 E20.70347
G1 X112.918 Y105.26 E20.81709
G1 X113.616 Y105.485 E20.8864
G1 X114.189 Y105.748 E20.94598
G1 X114.695 Y106.046 E21.00147
G1 X115.047 Y106.295 E21.04222
G1 X115.625 Y106.808 E21.11525
G1 X115.957 Y107.175 E21.16201
G1 X116.387 Y107.763 E21.23085
G1 X116.693 Y108.31 E21.29008
G1 X116.928 Y108.851 E21.34582
G1 X117.065 Y109.257 E21.38632
G1 X117.232 Y110.026 E21.46068
G1 X117.292 Y110.795 E21.53357
G1 X117.268 Y111.472 E21.59759
G1 X117.081 Y112.45 E21.69168
G1 X116.73 Y113.344 E21.78244
G1 X116.42 Y113.922 E21.84443
G1 X116.135 Y114.37 E21.8946
G1 X115.688 Y114.891 E21.95947
G1 X115.125 Y115.4 E22.0312
G1 X114.702 Y115.707 E22.08059
G1 X114.072 Y116.071 E22.14935
G1 X113.272 Y116.397 E22.23098
G1 X112.616 Y116.568 E22.29505
G1 X111.708 Y116.675 E22.38145
G1 X111.272 Y116.676 E22.42265
G1 X110.538 Y116.6 E22.49238
G1 X110.082 Y116.504 E22.53642
G1 X109.378 Y116.277 E22.60632
G1 X108.815 Y116.018 E22.66488
G1 X108.301 Y115.715 E22.72127
G1 X107.944 Y115.462 E22.76262
G1 X107.356 Y114.938 E22.83705
G1 X107.03 Y114.574 E22.88322
G1 X106.613 Y114.001 E22.95019
G1 X106.294 Y113.428 E23.01217
G1 X106.061 Y112.886 E23.06792
G1 X105.931 Y112.496 E23.10677
G1 X105.768 Y111.738 E23.18003
G1 X105.708 Y110.968 E23.25302
G1 X105.732 Y110.288 E23.31732
G1 X105.92 Y109.31 E23.41143
G1 X106.279 Y108.398 E23.50405
G1 X106.585 Y107.832 E23.56486
G1 X106.872 Y107.385 E23.61506
G1 X107.312 Y106.872 E23.67892
G1 X107.885 Y106.354 E23.75192
G0 F4320 X108.09 Y106.638
G1 F1800 X108.503 Y106.34 E23.80005
G1 X109.069 Y106.015 E23.86172
G1 X109.491 Y105.827 E23.90538
G1 X110.121 Y105.622 E23.96799
G1 X110.651 Y105.509 E24.0192
G1 X111.305 Y105.439 E24.08136
G1 X111.728 Y105.438 E24.12133
G1 X112.846 Y105.602 E24.22811
G1 X113.475 Y105.805 E24.29057
G1 X114.037 Y106.064 E24.34905
G1 X114.493 Y106.332 E24.39903
G1 X114.845 Y106.581 E24.43978
G1 X115.366 Y107.043 E24.50558
G1 X115.698 Y107.41 E24.55235
G1 X116.085 Y107.939 E24.61429
G1 X116.385 Y108.476 E24.67242
G1 X116.596 Y108.963 E24.72257
G1 X116.733 Y109.369 E24.76306
G1 X116.884 Y110.061 E24.83
G1 X116.942 Y110.795 E24.89958
G1 X116.92 Y111.431 E24.95971
G1 X116.749 Y112.34 E25.04712
G1 X116.422 Y113.179 E25.13222
G1 X116.112 Y113.757 E25.1942
G1 X115.686 Y114.367 E25.26451
G1 X115.427 Y114.658 E25.30132
G1 X114.92 Y115.117 E25.36595
G1 X114.497 Y115.424 E25.41534
G1 X113.929 Y115.752 E25.47732
G1 X113.171 Y116.062 E25.55471
G1 X112.556 Y116.224 E25.61481
G1 X111.707 Y116.325 E25.69561
G1 X111.271 Y116.326 E25.73681
G1 X110.61 Y116.258 E25.79961
G1 X110.154 Y116.162 E25.84364
G1 X109.52 Y115.957 E25.90661
G1 X108.966 Y115.702 E25.96424
G1 X108.503 Y115.429 E26.01504
G1 X108.146 Y115.176 E26.05639
G1 X107.617 Y114.704 E26.12338
G1 X107.291 Y114.34 E26.16956
G1 X106.915 Y113.824 E26.22989
G1 X106.603 Y113.264 E26.29047
G1 X106.393 Y112.775 E26.34076
G1 X106.263 Y112.385 E26.37961
G1 X106.116 Y111.702 E26.44563
G1 X106.058 Y110.968 E26.51521
G1 X106.08 Y110.329 E26.57564
G1 X106.252 Y109.42 E26.66306
G1 X106.587 Y108.564 E26.74993
G1 X106.893 Y107.998 E26.81073
G1 X107.312 Y107.4 E26.87973
G1 X107.574 Y107.105 E26.91702
G1 X108.09 Y106.638 E26.98278
G10
;MESH:pot_cover.stl
G0 F4320 X109.955 Y108.339
G0 X110.662 Y109.357
G0 X112.233 Y109.68
;TYPE:WALL-INNER
G11
G1 F1800 X112.448 Y109.835 E27.00783
G1 X112.635 Y110.044 E27.03433
G1 X112.801 Y110.342 E27.06657
G1 X112.878 Y110.581 E27.0903
G1 X112.908 Y110.92 E27.12246
G1 X112.882 Y111.165 E27.14574
G1 X112.773 Y111.482 E27.17742
G1 X112.615 Y111.743 E27.20625
G1 X112.453 Y111.925 E27.22928
G1 X112.18 Y112.113 E27.2606
G1 X111.909 Y112.229 E27.28846
G1 X111.614 Y112.285 E27.31683
G1 X111.354 Y112.286 E27.3414
G1 X111.069 Y112.224 E27.36896
G1 X110.767 Y112.084 E27.40042
G1 X110.552 Y111.929 E27.42547
G1 X110.365 Y111.72 E27.45197
G1 X110.199 Y111.422 E27.48421
G1 X110.122 Y111.183 E27.50793
G1 X110.092 Y110.843 E27.54019
G1 X110.118 Y110.599 E27.56338
G1 X110.227 Y110.282 E27.59506
G1 X110.385 Y110.021 E27.62389
G1 X110.547 Y109.84 E27.64684
G1 X110.824 Y109.647 E27.67875
G1 X111.086 Y109.537 E27.7056
G1 X111.387 Y109.479 E27.73457
G1 X111.646 Y109.478 E27.75904
G1 X111.931 Y109.54 E27.7866
G1 X112.233 Y109.68 E27.81806
G0 F4320 X112.413 Y109.378
G1 F1800 X112.682 Y109.572 E27.8494
G1 X112.922 Y109.84 E27.8834
G1 X113.123 Y110.202 E27.92253
G1 X113.224 Y110.512 E27.95334
G1 X113.26 Y110.921 E27.99214
G1 X113.226 Y111.244 E28.02283
G1 X113.093 Y111.628 E28.06123
G1 X112.896 Y111.953 E28.09715
G1 X112.686 Y112.189 E28.127
G1 X112.351 Y112.421 E28.16551
G1 X112.011 Y112.566 E28.20044
G1 X111.648 Y112.635 E28.23536
G1 X111.317 Y112.636 E28.26664
G1 X110.957 Y112.558 E28.30145
G1 X110.587 Y112.386 E28.34
G1 X110.318 Y112.192 E28.37135
G1 X110.078 Y111.924 E28.40534
G1 X109.877 Y111.562 E28.44447
G1 X109.776 Y111.252 E28.47528
G1 X109.74 Y110.843 E28.51408
G1 X109.774 Y110.52 E28.54477
G1 X109.907 Y110.136 E28.58318
G1 X110.104 Y109.811 E28.61909
G1 X110.313 Y109.577 E28.64874
G1 X110.653 Y109.34 E28.68791
G1 X110.987 Y109.199 E28.72217
G1 X111.352 Y109.129 E28.75729
G1 X111.683 Y109.128 E28.78857
G1 X112.043 Y109.206 E28.82338
G1 X112.413 Y109.378 E28.86193
G0 F4320 X112.58 Y109.098
;TYPE:WALL-OUTER
G1 F1800 X112.9 Y109.328 E28.89917
G1 X113.188 Y109.65 E28.94
G1 X113.422 Y110.072 E28.9856
G1 X113.545 Y110.447 E29.02289
G1 X113.586 Y110.922 E29.06795
G1 X113.545 Y111.315 E29.10529
G1 X113.389 Y111.767 E29.15047
G1 X113.16 Y112.145 E29.19224
G1 X112.901 Y112.435 E29.22898
G1 X112.509 Y112.707 E29.27407
G1 X112.106 Y112.878 E29.31544
G1 X111.678 Y112.96 E29.35662
G1 X111.282 Y112.961 E29.39404
G1 X110.854 Y112.869 E29.43541
G1 X110.42 Y112.666 E29.48069
G1 X110.1 Y112.436 E29.51793
G1 X109.812 Y112.114 E29.55876
G1 X109.578 Y111.692 E29.60436
G1 X109.455 Y111.317 E29.64165
G1 X109.414 Y110.842 E29.68671
G1 X109.455 Y110.449 E29.72405
G1 X109.611 Y109.997 E29.76923
G1 X109.84 Y109.619 E29.811
G1 X110.099 Y109.329 E29.84774
G1 X110.491 Y109.056 E29.89288
G1 X110.894 Y108.886 E29.93422
G1 X111.322 Y108.804 E29.9754
G1 X111.718 Y108.803 E30.01282
G1 X112.146 Y108.895 E30.05419
G1 X112.58 Y109.098 E30.09947
G0 F4320 X112.742 Y109.214
G0 X112.217 Y110.088
;TYPE:SKIN
G1 F1800 X112.357 Y110.243 E30.11921
G1 X112.485 Y110.475 E30.14425
G1 X112.544 Y110.653 E30.16197
G1 X112.567 Y110.914 E30.18673
G1 X112.548 Y111.091 E30.20355
G1 X112.464 Y111.336 E30.22802
G1 X112.34 Y111.541 E30.25067
G1 X112.225 Y111.67 E30.267
G1 X112.019 Y111.811 E30.29059
G1 X111.806 Y111.903 E30.31251
G1 X111.582 Y111.945 E30.33405
G1 X111.388 Y111.946 E30.35238
G1 X111.181 Y111.901 E30.3724
G1 X110.935 Y111.787 E30.39802
G1 X110.783 Y111.676 E30.41581
G1 X110.643 Y111.521 E30.43555
G1 X110.515 Y111.289 E30.46059
G1 X110.456 Y111.109 E30.47849
G1 X110.433 Y110.85 E30.50306
G1 X110.452 Y110.672 E30.51998
G1 X110.536 Y110.428 E30.54436
G1 X110.66 Y110.223 E30.567
G1 X110.774 Y110.096 E30.58313
G1 X110.989 Y109.946 E30.6079
