;FLAVOR:UltiGCode
;TIME:1914
;MATERIAL:3013
;MATERIAL2:0
;NOZZLE_DIAMETER:0.4
;MINX:99.725
;MINY:73.443
;MINZ:0.27
;MAXX:123.275
;MAXY:123.043
;MAXZ:18.87
;Generated with Cura_SteamEngine 4.5.0
M82 ;absolute extrusion mode

G92 E0
G92 E0
G10
;LAYER_COUNT:125
;LAYER:0
M107
G0 F4500 X100.753 Y80.301 Z0.27
;TYPE:SKIRT
G11
G1 F1800 X101.222 Y79.748 E0.06852
G1 X101.77 Y79.252 E0.13837
G1 X102.536 Y78.732 E0.22586
G1 X103.072 Y78.484 E0.28167
G1 X103.763 Y78.259 E0.35035
G1 X104.111 Y78.181 E0.38405
G1 X104.901 Y78.087 E0.45923
G1 X105.633 Y78.076 E0.52841
G1 X118.716 Y78.068 E1.76475
G1 X119.449 Y78.078 E1.83403
G1 X120.003 Y78.127 E1.88659
G1 X120.545 Y78.254 E1.93919
G1 X121.063 Y78.457 E1.99177
G1 X121.546 Y78.732 E2.04429
G1 X121.985 Y79.074 E2.09688
G1 X122.371 Y79.476 E2.14955
G1 X122.695 Y79.928 E2.2021
G1 X122.951 Y80.422 E2.25468
G1 X123.133 Y80.947 E2.30719
G1 X123.239 Y81.494 E2.35984
G1 X123.273 Y82.164 E2.42324
G1 X123.275 Y113.854 E5.41794
G1 X123.266 Y114.581 E5.48665
G1 X123.219 Y115.135 E5.53919
G1 X123.093 Y115.677 E5.59178
G1 X122.891 Y116.196 E5.64441
G1 X122.617 Y116.68 E5.69697
G1 X122.276 Y117.12 E5.74957
G1 X121.876 Y117.506 E5.8021
G1 X121.424 Y117.832 E5.85476
G1 X120.931 Y118.089 E5.9073
G1 X120.406 Y118.273 E5.95988
G1 X119.86 Y118.38 E6.01245
G1 X119.224 Y118.414 E6.07264
G1 X105.618 Y118.41 E7.35841
G1 X104.93 Y118.401 E7.42343
G1 X104.215 Y118.324 E7.49139
G1 X103.319 Y118.101 E7.57864
G1 X102.781 Y117.873 E7.63386
G1 X102.134 Y117.503 E7.70429
G1 X101.311 Y116.824 E7.80512
G1 X100.608 Y115.95 E7.91112
G1 X100.091 Y114.928 E8.01935
G1 X99.843 Y114.086 E8.1023
G1 X99.753 Y113.195 E8.18693
G1 X99.725 Y112.142 E8.28647
G1 X99.725 Y84.124 E10.93417
G1 X99.734 Y83.495 E10.99362
G1 X99.767 Y82.953 E11.04493
G1 X99.86 Y82.346 E11.10296
G1 X100.093 Y81.535 E11.1827
G1 X100.463 Y80.776 E11.2625
G1 X100.753 Y80.301 E11.31509
G0 F4500 X101.052 Y80.485
G1 F1800 X101.48 Y79.984 E11.37736
G1 X101.979 Y79.533 E11.44092
G1 X102.724 Y79.028 E11.52597
G1 X103.211 Y78.805 E11.57659
G1 X103.84 Y78.6 E11.63911
G1 X104.906 Y78.437 E11.74101
G1 X105.638 Y78.426 E11.81019
G1 X118.716 Y78.418 E13.04607
G1 X119.443 Y78.428 E13.11477
G1 X119.972 Y78.476 E13.16497
G1 X120.487 Y78.603 E13.2151
G1 X120.978 Y78.805 E13.26527
G1 X121.432 Y79.079 E13.31538
G1 X121.841 Y79.418 E13.36558
G1 X122.193 Y79.815 E13.41572
G1 X122.483 Y80.259 E13.46583
G1 X122.702 Y80.743 E13.51604
G1 X122.846 Y81.253 E13.56612
G1 X122.915 Y81.854 E13.62328
G1 X122.925 Y113.85 E16.64691
G1 X122.916 Y114.577 E16.71561
G1 X122.869 Y115.105 E16.76571
G1 X122.744 Y115.621 E16.81588
G1 X122.543 Y116.112 E16.86602
G1 X122.27 Y116.567 E16.91616
G1 X121.932 Y116.976 E16.9663
G1 X121.536 Y117.33 E17.01649
G1 X121.092 Y117.62 E17.06661
G1 X120.609 Y117.841 E17.1168
G1 X120.099 Y117.986 E17.16691
G1 X119.492 Y118.057 E17.22466
G1 X105.618 Y118.06 E18.53575
G1 X104.935 Y118.051 E18.6003
G1 X104.284 Y117.981 E18.66218
G1 X103.924 Y117.908 E18.69689
G1 X103.181 Y117.668 E18.77068
G1 X102.336 Y117.217 E18.86119
G1 X101.566 Y116.585 E18.95533
G1 X100.908 Y115.769 E19.05439
G1 X100.422 Y114.814 E19.15565
G1 X100.182 Y113.997 E19.23612
G1 X100.102 Y113.17 E19.31463
G1 X100.075 Y112.138 E19.41219
G1 X100.075 Y84.129 E22.05904
G1 X100.084 Y83.5 E22.11849
G1 X100.116 Y82.978 E22.16791
G1 X100.201 Y82.426 E22.22069
G1 X100.427 Y81.64 E22.29797
G1 X100.773 Y80.937 E22.37202
G1 X101.052 Y80.485 E22.42221
G0 F4500 X101.351 Y80.67
G1 F1800 X101.739 Y80.22 E22.47836
G1 X102.188 Y79.814 E22.53557
G1 X102.485 Y79.593 E22.57055
G1 X103.119 Y79.226 E22.63978
G1 X103.917 Y78.942 E22.71982
G1 X104.911 Y78.787 E22.81489
G1 X105.643 Y78.776 E22.88407
G1 X118.716 Y78.768 E24.11947
G1 X119.438 Y78.778 E24.18771
G1 X119.94 Y78.826 E24.23536
G1 X120.427 Y78.952 E24.2829
G1 X120.889 Y79.153 E24.33051
G1 X121.312 Y79.425 E24.37804
G1 X121.688 Y79.761 E24.42569
G1 X122.006 Y80.152 E24.47331
G1 X122.257 Y80.588 E24.52086
G1 X122.437 Y81.058 E24.56842
G1 X122.54 Y81.551 E24.61601
G1 X122.574 Y82.184 E24.67592
G1 X122.575 Y113.845 E27.66788
G1 X122.566 Y114.572 E27.73659
G1 X122.52 Y115.074 E27.78423
G1 X122.395 Y115.562 E27.83183
G1 X122.194 Y116.024 E27.87944
G1 X121.923 Y116.448 E27.927
G1 X121.589 Y116.824 E27.97452
G1 X121.199 Y117.143 E28.02214
G1 X120.763 Y117.396 E28.06977
G1 X120.293 Y117.577 E28.11737
G1 X119.801 Y117.681 E28.16489
G1 X119.204 Y117.715 E28.2214
G1 X105.619 Y117.71 E29.50518
G1 X104.94 Y117.701 E29.56935
G1 X104.354 Y117.638 E29.62505
G1 X103.994 Y117.565 E29.65976
G1 X103.324 Y117.349 E29.72628
G1 X102.538 Y116.932 E29.81036
G1 X101.822 Y116.346 E29.8978
G1 X101.208 Y115.588 E29.98998
G1 X100.753 Y114.7 E30.08427
G1 X100.522 Y113.908 E30.16223
G1 X100.451 Y113.145 E30.23465
G1 X100.425 Y112.134 E30.33022
G1 X100.425 Y84.134 E32.97622
G1 X100.434 Y83.505 E33.03567
G1 X100.465 Y83.004 E33.0831
G1 X100.542 Y82.507 E33.13063
G1 X100.762 Y81.747 E33.2054
G1 X101.084 Y81.098 E33.27386
G1 X101.351 Y80.67 E33.32153
G10
;MESH:frontpanel.stl
G0 F4500 X102.909 Y83.422
G0 X104.144 Y83.53
G0 X104.187 Y88.21
G0 X104.459 Y89.56
G0 X104.928 Y90.312
G0 X105.809 Y91.166
G0 X105.859 Y91.08
;TYPE:WALL-INNER
G11
G1 F1800 X106.487 Y91.36 E33.38651
G1 X107.158 Y91.502 E33.45132
G1 X107.842 Y91.502 E33.51596
G1 X108.513 Y91.36 E33.58078
G1 X109.139 Y91.081 E33.64554
G1 X109.694 Y90.678 E33.71036
G1 X110.132 Y90.191 E33.77225
G1 X110.478 Y89.603 E33.83673
G1 X110.696 Y88.955 E33.90134
G1 X110.774 Y88.276 E33.96592
G1 X110.711 Y87.593 E34.03074
G1 X110.505 Y86.94 E34.09545
G1 X110.169 Y86.342 E34.16027
G1 X109.715 Y85.83 E34.22493
G1 X109.141 Y85.405 E34.29243
G1 X108.513 Y85.125 E34.3574
G1 X107.842 Y84.983 E34.42222
G1 X107.158 Y84.983 E34.48686
G1 X106.487 Y85.125 E34.55167
G1 X105.861 Y85.404 E34.61644
G1 X105.306 Y85.807 E34.68125
G1 X104.868 Y86.294 E34.74315
G1 X104.522 Y86.882 E34.80762
G1 X104.47 Y87.035 E34.82289
G1 X104.304 Y87.53 E34.87223
G1 X104.226 Y88.21 E34.93691
G1 X104.289 Y88.892 E35.00163
G1 X104.47 Y89.467 E35.0586
G1 X104.495 Y89.545 E35.06634
G1 X104.831 Y90.143 E35.13116
G1 X105.285 Y90.655 E35.19583
G1 X105.859 Y91.08 E35.26332
G0 F4500 X105.809 Y91.166
G0 X104.265 Y97.522
G0 X104.25 Y98.899
G0 X104.799 Y100.166
G0 X105.809 Y101.166
G0 X105.859 Y101.08
G1 F1800 X106.487 Y101.36 E35.3283
G1 X107.158 Y101.502 E35.39311
G1 X107.842 Y101.502 E35.45775
G1 X108.513 Y101.36 E35.52256
G1 X109.139 Y101.081 E35.58733
G1 X109.694 Y100.678 E35.65215
G1 X110.132 Y100.191 E35.71404
G1 X110.478 Y99.603 E35.77851
G1 X110.696 Y98.955 E35.84312
G1 X110.774 Y98.276 E35.90771
G1 X110.711 Y97.593 E35.97253
G1 X110.505 Y96.94 E36.03723
G1 X110.169 Y96.342 E36.10205
G1 X109.715 Y95.83 E36.16672
G1 X109.141 Y95.405 E36.23421
G1 X108.513 Y95.125 E36.29919
G1 X107.842 Y94.983 E36.364
G1 X107.158 Y94.983 E36.42864
G1 X106.487 Y95.125 E36.49346
G1 X105.861 Y95.404 E36.55822
G1 X105.306 Y95.807 E36.62304
G1 X104.868 Y96.294 E36.68494
G1 X104.522 Y96.882 E36.74941
G1 X104.47 Y97.035 E36.76468
G1 X104.304 Y97.53 E36.81402
G1 X104.226 Y98.21 E36.8787
G1 X104.289 Y98.892 E36.94342
G1 X104.47 Y99.467 E37.00039
G1 X104.495 Y99.545 E37.00813
G1 X104.831 Y100.143 E37.07295
G1 X105.285 Y100.655 E37.13761
G1 X105.859 Y101.08 E37.20511
G0 F4500 X105.809 Y101.166
G0 X106.475 Y101.398
G0 X107.846 Y101.541
G0 X113.659 Y99.583
G0 X113.739 Y99.524
G1 F1800 X114.06 Y99.874 E37.24999
G1 X114.429 Y100.136 E37.29275
G1 X114.847 Y100.319 E37.33587
G1 X115.293 Y100.408 E37.37885
G1 X115.747 Y100.405 E37.42176
G1 X116.192 Y100.307 E37.46482
G1 X116.604 Y100.118 E37.50765
G1 X116.958 Y99.861 E37.54899
G1 X117.262 Y99.522 E37.59202
G1 X117.489 Y99.129 E37.63491
G1 X117.631 Y98.696 E37.67797
G1 X117.678 Y98.243 E37.72101
G1 X117.631 Y97.789 E37.76414
G1 X117.489 Y97.356 E37.8072
G1 X117.261 Y96.961 E37.8503
G1 X116.94 Y96.611 E37.89518
G1 X116.571 Y96.349 E37.93795
G1 X116.153 Y96.166 E37.98107
G1 X115.707 Y96.077 E38.02405
G1 X115.253 Y96.08 E38.06695
G1 X114.808 Y96.178 E38.11001
G1 X114.396 Y96.367 E38.15285
G1 X114.042 Y96.624 E38.19419
G1 X113.738 Y96.963 E38.23722
G1 X113.511 Y97.356 E38.28011
G1 X113.369 Y97.789 E38.32317
G1 X113.322 Y98.243 E38.3663
G1 X113.366 Y98.678 E38.40762
G1 X113.51 Y99.127 E38.45218
G1 X113.739 Y99.524 E38.49549
G0 F4500 X113.659 Y99.583
G0 X113.282 Y108.243
G0 X113.659 Y109.583
G0 X113.739 Y109.524
G1 F1800 X114.06 Y109.874 E38.54037
G1 X114.429 Y110.136 E38.58313
G1 X114.845 Y110.319 E38.62608
G1 X115.293 Y110.409 E38.66926
G1 X115.747 Y110.406 E38.71217
G1 X116.192 Y110.307 E38.75525
G1 X116.604 Y110.118 E38.79808
G1 X116.958 Y109.861 E38.83942
G1 X117.262 Y109.522 E38.88245
G1 X117.489 Y109.129 E38.92534
G1 X117.631 Y108.696 E38.9684
G1 X117.678 Y108.243 E39.01144
G1 X117.631 Y107.789 E39.05457
G1 X117.489 Y107.356 E39.09764
G1 X117.261 Y106.961 E39.14073
G1 X116.94 Y106.611 E39.18561
G1 X116.571 Y106.349 E39.22838
G1 X116.153 Y106.166 E39.2715
G1 X115.707 Y106.077 E39.31448
G1 X115.253 Y106.08 E39.35738
G1 X114.808 Y106.178 E39.40044
G1 X114.396 Y106.367 E39.44328
G1 X114.042 Y106.624 E39.48462
G1 X113.738 Y106.963 E39.52765
G1 X113.511 Y107.356 E39.57054
G1 X113.369 Y107.789 E39.6136
G1 X113.322 Y108.243 E39.65673
G1 X113.366 Y108.678 E39.69805
G1 X113.51 Y109.127 E39.74261
G1 X113.739 Y109.524 E39.78592
G0 F4500 X113.659 Y109.583
G0 X107.791 Y110.792
G0 X106.731 Y110.691
G0 X105.376 Y109.789
G0 X105.456 Y109.73
G1 F1800 X105.827 Y110.136 E39.83789
G1 X106.257 Y110.442 E39.88776
G1 X106.742 Y110.653 E39.93775
G1 X107.26 Y110.757 E39.98767
G1 X107.787 Y110.753 E40.03748
G1 X108.303 Y110.638 E40.08744
G1 X108.781 Y110.42 E40.13708
G1 X109.192 Y110.121 E40.18511
G1 X109.545 Y109.728 E40.23503
G1 X109.81 Y109.271 E40.28496
G1 X109.973 Y108.768 E40.33492
G1 X110.028 Y108.243 E40.38481
G1 X109.973 Y107.717 E40.43478
G1 X109.81 Y107.214 E40.48475
G1 X109.544 Y106.755 E40.53488
G1 X109.173 Y106.349 E40.58686
G1 X108.743 Y106.043 E40.63673
G1 X108.258 Y105.832 E40.68671
G1 X107.74 Y105.728 E40.73664
G1 X107.213 Y105.732 E40.78644
G1 X106.697 Y105.847 E40.8364
G1 X106.219 Y106.065 E40.88605
G1 X105.808 Y106.364 E40.93408
G1 X105.455 Y106.757 E40.984
G1 X105.19 Y107.214 E41.03392
G1 X105.027 Y107.717 E41.08389
G1 X104.972 Y108.243 E41.13387
G1 X105.024 Y108.745 E41.18156
G1 X105.19 Y109.269 E41.2335
G1 X105.456 Y109.73 E41.2838
G0 F4500 X105.376 Y109.789
G0 X105.022 Y113.911
G0 X105.012 Y114.01
G1 F1800 X104.79 Y113.962 E41.30526
G1 X104.61 Y113.88 E41.32396
G1 X104.447 Y113.762 E41.34297
G1 X104.312 Y113.613 E41.36197
G1 X104.212 Y113.438 E41.38102
G1 X104.155 Y113.262 E41.3985
G1 X104.125 Y112.708 E41.45093
G1 X104.125 Y99.495 E42.69956
G1 X104.125 Y98.892 E42.74159
G1 X104.125 Y98.21 E42.76596
G1 X104.125 Y97.53 E42.79161
G1 X104.125 Y97.008 E42.82905
G1 X104.125 Y89.495 E43.53903
G1 X104.125 Y88.892 E43.58106
G1 X104.125 Y88.21 E43.60543
G1 X104.125 Y87.53 E43.63107
G1 X104.125 Y87.008 E43.66851
G1 X104.125 Y83.53 E43.99718
G1 X104.151 Y83.236 E44.02508
G1 X104.212 Y83.047 E44.04384
G1 X104.314 Y82.871 E44.06307
G1 X104.453 Y82.719 E44.08253
G1 X104.625 Y82.596 E44.10251
G1 X104.81 Y82.516 E44.12156
G1 X105.006 Y82.476 E44.14046
G1 X118.7 Y82.468 E45.43455
G1 X118.875 Y82.468 E45.45109
G1 X118.875 Y82.643 E45.46179
G1 X118.875 Y114.017 E48.42663
G1 X115.896 Y114.017 E48.70815
G1 X105.012 Y114.01 E49.73668
G0 F4500 X105.022 Y113.911
G0 X109.218 Y110.15
G0 X109.846 Y109.287
G0 X110.068 Y108.243
G0 X115.751 Y90.444
G0 X116.624 Y90.152
G0 X117.294 Y89.545
G0 X117.67 Y88.704
G0 X117.68 Y87.87
G0 X117.341 Y86.902
G0 X117.261 Y86.961
G1 F1800 X116.94 Y86.611 E49.78156
G1 X116.571 Y86.349 E49.82433
G1 X116.153 Y86.166 E49.86745
G1 X115.707 Y86.077 E49.91043
G1 X115.253 Y86.08 E49.95333
G1 X114.808 Y86.178 E49.99639
G1 X114.396 Y86.367 E50.03923
G1 X114.042 Y86.624 E50.08057
G1 X113.738 Y86.963 E50.1236
G1 X113.511 Y87.356 E50.16649
G1 X113.369 Y87.789 E50.20955
G1 X113.322 Y88.243 E50.25268
G1 X113.369 Y88.696 E50.29572
G1 X113.51 Y89.129 E50.33875
G1 X113.729 Y89.508 E50.38012
G1 X114.058 Y89.872 E50.42648
G1 X114.429 Y90.136 E50.46951
G1 X114.847 Y90.319 E50.51263
G1 X115.293 Y90.408 E50.55561
G1 X115.747 Y90.405 E50.59852
G1 X116.192 Y90.307 E50.64158
G1 X116.604 Y90.118 E50.68441
G1 X116.958 Y89.861 E50.72575
G1 X117.262 Y89.522 E50.76878
G1 X117.489 Y89.129 E50.81167
G1 X117.631 Y88.696 E50.85473
G1 X117.678 Y88.243 E50.89777
G1 X117.631 Y87.789 E50.9409
G1 X117.489 Y87.356 E50.98396
G1 X117.261 Y86.961 E51.02706
G0 F4500 X117.341 Y86.902
G0 X117.67 Y87.781
G0 X117.67 Y88.704
G0 X117.294 Y89.545
G0 X116.624 Y90.152
G0 X115.751 Y90.444
G0 X114.922 Y90.375
G0 X113.96 Y89.912
G0 X114.275 Y89.628
;TYPE:WALL-OUTER
G1 F1800 X114.59 Y89.852 E51.06359
G1 X114.945 Y90.007 E51.1002
G1 X115.324 Y90.083 E51.13673
G1 X115.71 Y90.08 E51.1732
G1 X116.088 Y89.997 E51.20978
G1 X116.439 Y89.836 E51.24627
G1 X116.739 Y89.618 E51.28131
G1 X116.998 Y89.33 E51.31792
G1 X117.191 Y88.996 E51.35437
G1 X117.311 Y88.628 E51.39095
G1 X117.351 Y88.243 E51.42753
G1 X117.311 Y87.857 E51.4642
G1 X117.191 Y87.489 E51.50078
G1 X116.997 Y87.154 E51.53736
G1 X116.724 Y86.856 E51.57555
G1 X116.41 Y86.633 E51.61194
G1 X116.055 Y86.478 E51.64855
G1 X115.676 Y86.402 E51.68508
G1 X115.29 Y86.405 E51.72156
G1 X114.912 Y86.488 E51.75813
G1 X114.561 Y86.649 E51.79462
G1 X114.261 Y86.867 E51.82967
G1 X114.002 Y87.155 E51.86627
G1 X113.809 Y87.489 E51.90272
G1 X113.689 Y87.857 E51.9393
G1 X113.649 Y88.243 E51.97597
G1 X113.689 Y88.628 E52.01255
G1 X113.809 Y88.996 E52.04913
G1 X113.993 Y89.316 E52.08401
G1 X114.275 Y89.628 E52.12376
G0 F4500 X114.438 Y89.744
G0 X114.191 Y90.089
G0 X107.846 Y91.541
G0 X106.962 Y91.501
G0 X105.851 Y91.185
G0 X106.024 Y90.798
G1 F1800 X106.588 Y91.049 E52.18209
G1 X107.192 Y91.177 E52.24044
G1 X107.808 Y91.177 E52.29865
G1 X108.412 Y91.049 E52.357
G1 X108.976 Y90.798 E52.41533
G1 X109.475 Y90.435 E52.47365
G1 X109.869 Y89.998 E52.52925
G1 X110.181 Y89.467 E52.58745
G1 X110.377 Y88.884 E52.64557
G1 X110.447 Y88.272 E52.70378
G1 X110.391 Y87.658 E52.76205
G1 X110.205 Y87.07 E52.82033
G1 X109.903 Y86.532 E52.87863
G1 X109.494 Y86.071 E52.93687
G1 X108.976 Y85.687 E52.9978
G1 X108.412 Y85.436 E53.05614
G1 X107.808 Y85.308 E53.11449
G1 X107.192 Y85.308 E53.1727
G1 X106.588 Y85.436 E53.23105
G1 X106.024 Y85.687 E53.28938
G1 X105.525 Y86.05 E53.3477
G1 X105.131 Y86.487 E53.4033
G1 X104.819 Y87.018 E53.4615
G1 X104.623 Y87.601 E53.51962
G1 X104.553 Y88.214 E53.57793
G1 X104.609 Y88.827 E53.6361
G1 X104.795 Y89.415 E53.69438
G1 X105.097 Y89.953 E53.75268
G1 X105.506 Y90.414 E53.81092
G1 X106.024 Y90.798 E53.87185
G0 F4500 X106.206 Y90.879
G0 X106.033 Y91.266
G0 X104.265 Y97.522
G0 X104.25 Y98.899
G0 X104.799 Y100.166
G0 X105.851 Y101.185
G0 X106.024 Y100.798
G1 F1800 X106.588 Y101.049 E53.93019
G1 X107.192 Y101.177 E53.98854
G1 X107.808 Y101.177 E54.04675
G1 X108.412 Y101.049 E54.1051
G1 X108.976 Y100.798 E54.16343
G1 X109.475 Y100.435 E54.22175
G1 X109.869 Y99.998 E54.27735
G1 X110.181 Y99.467 E54.33555
G1 X110.377 Y98.884 E54.39367
G1 X110.447 Y98.272 E54.45188
G1 X110.391 Y97.658 E54.51015
G1 X110.205 Y97.07 E54.56843
G1 X109.903 Y96.532 E54.62673
G1 X109.494 Y96.071 E54.68497
G1 X108.976 Y95.687 E54.7459
G1 X108.412 Y95.436 E54.80424
G1 X107.808 Y95.308 E54.86259
G1 X107.192 Y95.308 E54.9208
G1 X106.588 Y95.436 E54.97914
G1 X106.024 Y95.687 E55.03748
G1 X105.525 Y96.05 E55.0958
G1 X105.131 Y96.487 E55.1514
G1 X104.819 Y97.018 E55.2096
G1 X104.623 Y97.601 E55.26772
G1 X104.553 Y98.214 E55.32603
G1 X104.609 Y98.827 E55.3842
G1 X104.795 Y99.415 E55.44248
G1 X105.097 Y99.953 E55.50078
G1 X105.506 Y100.414 E55.55902
G1 X106.024 Y100.798 E55.61995
G0 F4500 X106.206 Y100.879
G0 X106.033 Y101.266
G0 X107.154 Y101.541
G0 X108.23 Y101.461
G0 X113.69 Y99.617
G0 X114.003 Y99.331
G1 F1800 X114.276 Y99.629 E55.65814
G1 X114.59 Y99.852 E55.69454
G1 X114.945 Y100.007 E55.73115
G1 X115.324 Y100.083 E55.76767
G1 X115.71 Y100.08 E55.80415
G1 X116.088 Y99.997 E55.84072
G1 X116.439 Y99.836 E55.87722
G1 X116.739 Y99.618 E55.91226
G1 X116.998 Y99.33 E55.94886
G1 X117.191 Y98.996 E55.98532
