;FLAVOR:UltiGCode
;TIME:2730
;MATERIAL:2917
;MATERIAL2:0
;NOZZLE_DIAMETER:0.4
;MINX:99.725
;MINY:86.7
;MINZ:0.27
;MAXX:123.275
;MAXY:136.3
;MAXZ:18.97
;Generated with Cura_SteamEngine 4.5.0
M82 ;absolute extrusion mode

G92 E0
G92 E0
G10
;LAYER_COUNT:188
;LAYER:0
M107
G0 F4500 X101.196 Y93.031 Z0.27
;TYPE:SKIRT
G11
G1 F1800 X101.765 Y92.516 E0.07252
G1 X102.057 Y92.3 E0.10685
G1 X102.747 Y91.892 E0.1826
G1 X103.764 Y91.519 E0.28497
G1 X104.125 Y91.438 E0.31993
G1 X104.914 Y91.344 E0.39502
G1 X105.632 Y91.333 E0.46287
G1 X118.716 Y91.325 E1.69931
G1 X119.449 Y91.335 E1.76859
G1 X120.003 Y91.384 E1.82115
G1 X120.545 Y91.511 E1.87375
G1 X121.063 Y91.714 E1.92633
G1 X121.546 Y91.989 E1.97885
G1 X121.985 Y92.331 E2.03144
G1 X122.371 Y92.733 E2.08411
G1 X122.695 Y93.185 E2.13666
G1 X122.951 Y93.679 E2.18924
G1 X123.133 Y94.204 E2.24175
G1 X123.239 Y94.751 E2.2944
G1 X123.273 Y95.421 E2.3578
G1 X123.275 Y127.118 E5.35316
G1 X123.265 Y127.841 E5.42149
G1 X123.217 Y128.395 E5.47404
G1 X123.09 Y128.937 E5.52665
G1 X122.888 Y129.455 E5.57919
G1 X122.613 Y129.939 E5.6318
G1 X122.271 Y130.378 E5.68438
G1 X121.871 Y130.764 E5.73691
G1 X121.419 Y131.089 E5.78952
G1 X120.925 Y131.345 E5.8421
G1 X120.399 Y131.528 E5.89473
G1 X119.853 Y131.634 E5.94729
G1 X119.282 Y131.67 E6.00136
G1 X105.67 Y131.667 E7.28769
G1 X104.957 Y131.658 E7.35508
G1 X104.272 Y131.587 E7.42016
G1 X103.338 Y131.365 E7.51088
G1 X102.722 Y131.101 E7.57421
G1 X102.087 Y130.732 E7.64361
G1 X101.332 Y130.101 E7.7366
G1 X100.704 Y129.373 E7.82746
G1 X100.395 Y128.865 E7.88365
G1 X100.098 Y128.213 E7.95135
G1 X99.837 Y127.339 E8.03755
G1 X99.754 Y126.639 E8.10416
G1 X99.725 Y125.49 E8.21278
G1 X99.725 Y97.414 E10.86596
G1 X99.735 Y96.735 E10.93013
G1 X99.849 Y95.675 E11.03088
G1 X100.089 Y94.799 E11.11671
G1 X100.457 Y94.039 E11.19651
G1 X100.747 Y93.564 E11.2491
G1 X101.196 Y93.031 E11.31496
G0 F4500 X101.455 Y93.266
G1 F1800 X101.973 Y92.797 E11.38099
G1 X102.265 Y92.581 E11.41532
G1 X102.893 Y92.21 E11.48424
G1 X103.84 Y91.861 E11.57962
G1 X104.919 Y91.694 E11.6828
G1 X105.637 Y91.683 E11.75066
G1 X118.716 Y91.675 E12.98662
G1 X119.443 Y91.685 E13.05533
G1 X119.972 Y91.733 E13.10553
G1 X120.487 Y91.86 E13.15565
G1 X120.978 Y92.062 E13.20582
G1 X121.432 Y92.336 E13.25594
G1 X121.841 Y92.675 E13.30614
G1 X122.193 Y93.072 E13.35628
G1 X122.483 Y93.516 E13.40639
G1 X122.702 Y94 E13.45659
G1 X122.846 Y94.51 E13.50667
G1 X122.915 Y95.111 E13.56384
G1 X122.925 Y127.113 E16.58803
G1 X122.915 Y127.836 E16.65636
G1 X122.867 Y128.364 E16.70646
G1 X122.741 Y128.88 E16.75666
G1 X122.539 Y129.37 E16.80674
G1 X122.266 Y129.825 E16.85688
G1 X121.927 Y130.234 E16.90709
G1 X121.531 Y130.587 E16.95722
G1 X121.087 Y130.877 E17.00733
G1 X120.604 Y131.096 E17.05745
G1 X120.093 Y131.241 E17.10764
G1 X119.543 Y131.309 E17.16002
G1 X105.67 Y131.317 E18.47101
G1 X104.962 Y131.308 E18.53793
G1 X104.339 Y131.244 E18.59711
G1 X103.43 Y131.027 E18.68542
G1 X102.868 Y130.783 E18.74332
G1 X102.291 Y130.447 E18.80642
G1 X101.588 Y129.861 E18.89291
G1 X100.976 Y129.152 E18.98142
G1 X100.698 Y128.691 E19.03229
G1 X100.429 Y128.098 E19.09382
G1 X100.176 Y127.248 E19.17763
G1 X100.103 Y126.607 E19.2386
G1 X100.075 Y125.485 E19.34466
G1 X100.075 Y97.419 E21.9969
G1 X100.085 Y96.74 E22.06107
G1 X100.191 Y95.752 E22.15497
G1 X100.425 Y94.902 E22.23828
G1 X100.767 Y94.2 E22.31208
G1 X101.046 Y93.748 E22.36227
G1 X101.455 Y93.266 E22.42201
G0 F4500 X101.715 Y93.501
G1 F1800 X102.181 Y93.078 E22.48148
G1 X103.039 Y92.529 E22.57774
G1 X103.917 Y92.202 E22.66628
G1 X104.924 Y92.044 E22.76261
G1 X105.642 Y92.033 E22.83047
G1 X118.716 Y92.025 E24.06596
G1 X119.438 Y92.035 E24.13419
G1 X119.94 Y92.083 E24.18185
G1 X120.427 Y92.209 E24.22939
G1 X120.889 Y92.41 E24.277
G1 X121.312 Y92.682 E24.32452
G1 X121.688 Y93.018 E24.37217
G1 X122.006 Y93.409 E24.4198
G1 X122.257 Y93.845 E24.46734
G1 X122.437 Y94.315 E24.5149
G1 X122.54 Y94.808 E24.5625
G1 X122.574 Y95.441 E24.6224
G1 X122.575 Y127.108 E27.61493
G1 X122.565 Y127.831 E27.68326
G1 X122.518 Y128.332 E27.73082
G1 X122.392 Y128.82 E27.77845
G1 X122.191 Y129.282 E27.82606
G1 X121.92 Y129.706 E27.87361
G1 X121.584 Y130.082 E27.92126
G1 X121.194 Y130.4 E27.96882
G1 X120.758 Y130.652 E28.01641
G1 X120.288 Y130.832 E28.06397
G1 X119.795 Y130.936 E28.11158
G1 X119.252 Y130.971 E28.163
G1 X105.67 Y130.967 E29.4465
G1 X104.967 Y130.958 E29.51294
G1 X104.405 Y130.9 E29.56633
G1 X103.523 Y130.688 E29.65205
G1 X103.015 Y130.465 E29.70448
G1 X102.495 Y130.163 E29.76131
G1 X101.843 Y129.622 E29.84137
G1 X101.565 Y129.326 E29.87974
G1 X101.122 Y128.727 E29.95015
G1 X100.76 Y127.983 E30.02834
G1 X100.516 Y127.159 E30.10955
G1 X100.451 Y126.575 E30.16507
G1 X100.425 Y125.479 E30.26868
G1 X100.425 Y97.424 E32.91987
G1 X100.435 Y96.745 E32.98405
G1 X100.532 Y95.83 E33.071
G1 X100.76 Y95.006 E33.15179
G1 X101.078 Y94.361 E33.21975
G1 X101.344 Y93.933 E33.26737
G1 X101.715 Y93.501 E33.32118
G10
;MESH:frontpanel.stl
G0 F4500 X102.91 Y96.675
G0 X104.144 Y96.782
G0 X104.187 Y106.467
G0 X104.459 Y107.818
G0 X104.928 Y108.569
G0 X105.809 Y109.425
G0 X105.859 Y109.339
;TYPE:WALL-INNER
G11
G1 F1800 X106.487 Y109.617 E33.38608
G1 X107.158 Y109.76 E33.45092
G1 X107.842 Y109.76 E33.51555
G1 X108.513 Y109.617 E33.58039
G1 X109.138 Y109.339 E33.64503
G1 X109.694 Y108.936 E33.70992
G1 X110.132 Y108.448 E33.77189
G1 X110.478 Y107.862 E33.8362
G1 X110.696 Y107.213 E33.9009
G1 X110.774 Y106.533 E33.96558
G1 X110.711 Y105.85 E34.0304
G1 X110.505 Y105.197 E34.0951
G1 X110.169 Y104.601 E34.15976
G1 X109.715 Y104.087 E34.22456
G1 X109.141 Y103.661 E34.29211
G1 X108.513 Y103.383 E34.35702
G1 X107.842 Y103.24 E34.42185
G1 X107.158 Y103.24 E34.48649
G1 X106.487 Y103.383 E34.55132
G1 X105.862 Y103.661 E34.61596
G1 X105.306 Y104.064 E34.68085
G1 X104.868 Y104.552 E34.74282
G1 X104.522 Y105.138 E34.80713
G1 X104.47 Y105.291 E34.8224
G1 X104.304 Y105.787 E34.87183
G1 X104.226 Y106.467 E34.93651
G1 X104.289 Y107.15 E35.00133
G1 X104.47 Y107.725 E35.05829
G1 X104.495 Y107.803 E35.06603
G1 X104.831 Y108.399 E35.13069
G1 X105.285 Y108.913 E35.1955
G1 X105.859 Y109.339 E35.26305
G0 F4500 X105.809 Y109.425
G0 X104.265 Y115.779
G0 X104.25 Y117.157
G0 X104.799 Y118.422
G0 X105.809 Y119.425
G0 X105.859 Y119.339
G1 F1800 X106.487 Y119.617 E35.32795
G1 X107.158 Y119.76 E35.39278
G1 X107.842 Y119.76 E35.45742
G1 X108.513 Y119.617 E35.52225
G1 X109.138 Y119.339 E35.58689
G1 X109.694 Y118.936 E35.65179
G1 X110.132 Y118.448 E35.71375
G1 X110.478 Y117.862 E35.77806
G1 X110.696 Y117.213 E35.84276
G1 X110.774 Y116.533 E35.90744
G1 X110.711 Y115.85 E35.97226
G1 X110.505 Y115.197 E36.03697
G1 X110.169 Y114.601 E36.10162
G1 X109.715 Y114.087 E36.16643
G1 X109.141 Y113.661 E36.23398
G1 X108.513 Y113.383 E36.29888
G1 X107.842 Y113.24 E36.36371
G1 X107.158 Y113.24 E36.42835
G1 X106.487 Y113.383 E36.49318
G1 X105.862 Y113.661 E36.55783
G1 X105.306 Y114.064 E36.62272
G1 X104.868 Y114.552 E36.68468
G1 X104.522 Y115.138 E36.74899
G1 X104.47 Y115.291 E36.76427
G1 X104.304 Y115.787 E36.81369
G1 X104.226 Y116.467 E36.87837
G1 X104.289 Y117.15 E36.94319
G1 X104.47 Y117.725 E37.00016
G1 X104.495 Y117.803 E37.0079
G1 X104.831 Y118.399 E37.07255
G1 X105.285 Y118.913 E37.13736
G1 X105.859 Y119.339 E37.20491
G0 F4500 X105.809 Y119.425
G0 X105.024 Y127.168
G0 X105.014 Y127.267
G1 F1800 X104.787 Y127.219 E37.22684
G1 X104.602 Y127.134 E37.24608
G1 X104.45 Y127.024 E37.26381
G1 X104.311 Y126.87 E37.28341
G1 X104.213 Y126.698 E37.30212
G1 X104.151 Y126.507 E37.32109
G1 X104.125 Y126.213 E37.34899
G1 X104.125 Y117.753 E38.14846
G1 X104.125 Y117.15 E38.19049
G1 X104.125 Y116.467 E38.21489
G1 X104.125 Y115.787 E38.24054
G1 X104.125 Y115.264 E38.27805
G1 X104.125 Y107.753 E38.98784
G1 X104.125 Y107.15 E39.02987
G1 X104.125 Y106.467 E39.05428
G1 X104.125 Y105.787 E39.07992
G1 X104.125 Y105.264 E39.11743
G1 X104.125 Y96.782 E39.91898
G1 X104.151 Y96.494 E39.94631
G1 X104.212 Y96.304 E39.96517
G1 X104.314 Y96.128 E39.98439
G1 X104.455 Y95.974 E40.00412
G1 X104.623 Y95.854 E40.02363
G1 X104.805 Y95.775 E40.04238
G1 X105.011 Y95.733 E40.06225
G1 X118.7 Y95.725 E41.35586
G1 X118.875 Y95.725 E41.3724
G1 X118.875 Y95.9 E41.3831
G1 X118.875 Y127.275 E44.34804
G1 X115.896 Y127.275 E44.62955
G1 X105.014 Y127.267 E45.6579
G0 F4500 X105.024 Y127.168
G0 X113.659 Y122.842
G0 X113.739 Y122.783
G1 F1800 X114.06 Y123.131 E45.70264
G1 X114.429 Y123.395 E45.74552
G1 X114.847 Y123.576 E45.78856
G1 X115.293 Y123.666 E45.83156
G1 X115.747 Y123.663 E45.87446
G1 X116.192 Y123.564 E45.91755
G1 X116.604 Y123.376 E45.96034
G1 X116.958 Y123.118 E46.00174
G1 X117.262 Y122.78 E46.0447
G1 X117.489 Y122.386 E46.08767
G1 X117.631 Y121.953 E46.13073
G1 X117.678 Y121.5 E46.17377
G1 X117.631 Y121.047 E46.21681
G1 X117.489 Y120.614 E46.25987
G1 X117.261 Y120.217 E46.30313
G1 X116.94 Y119.869 E46.34787
G1 X116.571 Y119.605 E46.39075
G1 X116.153 Y119.424 E46.43379
G1 X115.707 Y119.334 E46.47679
G1 X115.253 Y119.337 E46.51969
G1 X114.808 Y119.436 E46.56277
G1 X114.396 Y119.624 E46.60557
G1 X114.042 Y119.882 E46.64696
G1 X113.738 Y120.22 E46.68992
G1 X113.511 Y120.614 E46.73289
G1 X113.369 Y121.047 E46.77596
G1 X113.322 Y121.5 E46.819
G1 X113.369 Y121.953 E46.86203
G1 X113.511 Y122.386 E46.9051
G1 X113.739 Y122.783 E46.94836
G0 F4500 X113.659 Y122.842
G0 X113.33 Y121.961
G0 X113.33 Y121.039
G0 X116.365 Y113.517
G0 X116.984 Y113.147
G0 X117.525 Y112.402
G0 X117.718 Y111.5
G0 X117.341 Y110.158
G0 X117.261 Y110.217
G1 F1800 X116.94 Y109.869 E46.9931
G1 X116.571 Y109.605 E47.03598
G1 X116.153 Y109.424 E47.07902
G1 X115.707 Y109.334 E47.12202
G1 X115.253 Y109.337 E47.16492
G1 X114.808 Y109.436 E47.208
G1 X114.396 Y109.624 E47.2508
G1 X114.042 Y109.882 E47.29219
G1 X113.738 Y110.22 E47.33515
G1 X113.511 Y110.614 E47.37812
G1 X113.369 Y111.047 E47.42119
G1 X113.322 Y111.5 E47.46422
G1 X113.369 Y111.953 E47.50726
G1 X113.51 Y112.386 E47.5503
G1 X113.729 Y112.766 E47.59174
G1 X114.058 Y113.129 E47.63804
G1 X114.429 Y113.394 E47.68112
G1 X114.847 Y113.576 E47.72421
G1 X115.293 Y113.666 E47.7672
G1 X115.747 Y113.663 E47.81011
G1 X116.192 Y113.564 E47.85319
G1 X116.604 Y113.376 E47.89598
G1 X116.958 Y113.118 E47.93738
G1 X117.262 Y112.78 E47.98034
G1 X117.489 Y112.386 E48.02331
G1 X117.631 Y111.953 E48.06637
G1 X117.678 Y111.5 E48.10941
G1 X117.631 Y111.047 E48.15245
G1 X117.489 Y110.614 E48.19551
G1 X117.261 Y110.217 E48.23877
G0 F4500 X117.341 Y110.158
G0 X117.718 Y101.5
G0 X117.341 Y100.158
G0 X117.261 Y100.217
G1 F1800 X116.94 Y99.869 E48.28351
G1 X116.571 Y99.605 E48.32639
G1 X116.153 Y99.424 E48.36943
G1 X115.707 Y99.334 E48.41243
G1 X115.253 Y99.337 E48.45534
G1 X114.808 Y99.436 E48.49842
G1 X114.396 Y99.624 E48.54121
G1 X114.042 Y99.882 E48.58261
G1 X113.738 Y100.22 E48.62557
G1 X113.511 Y100.614 E48.66854
G1 X113.369 Y101.047 E48.7116
G1 X113.322 Y101.5 E48.75464
G1 X113.369 Y101.953 E48.79768
G1 X113.51 Y102.386 E48.84071
G1 X113.729 Y102.766 E48.88216
G1 X114.058 Y103.129 E48.92845
G1 X114.429 Y103.394 E48.97154
G1 X114.847 Y103.576 E49.01462
G1 X115.293 Y103.666 E49.05762
G1 X115.747 Y103.663 E49.10052
G1 X116.192 Y103.564 E49.1436
G1 X116.604 Y103.376 E49.1864
G1 X116.958 Y103.118 E49.22779
G1 X117.262 Y102.78 E49.27075
G1 X117.489 Y102.386 E49.31372
G1 X117.631 Y101.953 E49.35678
G1 X117.678 Y101.5 E49.39982
G1 X117.631 Y101.047 E49.44286
G1 X117.489 Y100.614 E49.48592
G1 X117.261 Y100.217 E49.52919
G0 F4500 X116.997 Y100.411
;TYPE:WALL-OUTER
G1 F1800 X116.724 Y100.114 E49.56731
G1 X116.41 Y99.89 E49.60376
G1 X116.055 Y99.736 E49.64033
G1 X115.676 Y99.659 E49.67687
G1 X115.29 Y99.662 E49.71335
G1 X114.912 Y99.746 E49.74994
G1 X114.561 Y99.906 E49.7864
G1 X114.261 Y100.125 E49.8215
G1 X114.002 Y100.412 E49.85803
G1 X113.809 Y100.747 E49.89457
G1 X113.689 Y101.115 E49.93114
G1 X113.649 Y101.5 E49.96772
G1 X113.689 Y101.885 E50.0043
G1 X113.809 Y102.253 E50.04088
G1 X113.993 Y102.574 E50.07584
G1 X114.275 Y102.885 E50.11552
G1 X114.59 Y103.11 E50.1521
G1 X114.945 Y103.264 E50.18867
G1 X115.324 Y103.341 E50.22521
G1 X115.71 Y103.338 E50.26169
G1 X116.088 Y103.254 E50.29828
G1 X116.439 Y103.094 E50.33474
G1 X116.739 Y102.875 E50.36984
G1 X116.998 Y102.588 E50.40637
G1 X117.191 Y102.253 E50.4429
G1 X117.311 Y101.885 E50.47948
G1 X117.351 Y101.5 E50.51606
G1 X117.311 Y101.115 E50.55264
G1 X117.191 Y100.747 E50.58922
G1 X116.997 Y100.411 E50.62588
G0 F4500 X116.862 Y100.264
G0 X117.175 Y99.977
G0 X117.525 Y100.598
G0 X117.696 Y101.299
G0 X117.31 Y110.124
G0 X116.997 Y110.411
G1 F1800 X116.724 Y110.114 E50.664
G1 X116.41 Y109.89 E50.70045
G1 X116.055 Y109.736 E50.73702
G1 X115.676 Y109.659 E50.77357
G1 X115.29 Y109.662 E50.81005
G1 X114.912 Y109.746 E50.84664
G1 X114.561 Y109.906 E50.88309
G1 X114.261 Y110.125 E50.91819
G1 X114.002 Y110.412 E50.95473
G1 X113.809 Y110.747 E50.99126
G1 X113.689 Y111.115 E51.02784
G1 X113.649 Y111.5 E51.06442
G1 X113.689 Y111.885 E51.101
G1 X113.809 Y112.253 E51.13757
G1 X113.993 Y112.574 E51.17254
G1 X114.275 Y112.885 E51.21221
G1 X114.59 Y113.11 E51.24879
G1 X114.945 Y113.264 E51.28536
G1 X115.324 Y113.341 E51.32191
G1 X115.71 Y113.338 E51.35839
G1 X116.088 Y113.254 E51.39498
G1 X116.439 Y113.094 E51.43143
G1 X116.739 Y112.875 E51.46653
G1 X116.998 Y112.588 E51.50306
G1 X117.191 Y112.253 E51.5396
G1 X117.311 Y111.885 E51.57618
G1 X117.351 Y111.5 E51.61276
G1 X117.311 Y111.115 E51.64933
G1 X117.191 Y110.747 E51.68591
G1 X116.997 Y110.411 E51.72258
G0 F4500 X116.862 Y110.264
G0 X117.175 Y109.977
G0 X116.59 Y109.571
G0 X115.71 Y109.295
G0 X107.846 Y109.799
G0 X106.962 Y109.759
G0 X105.852 Y109.444
G0 X106.024 Y109.056
G1 F1800 X106.588 Y109.306 E51.78088
G1 X107.192 Y109.435 E51.83924
G1 X107.808 Y109.435 E51.89745
G1 X108.412 Y109.306 E51.95582
G1 X108.975 Y109.056 E52.01403
G1 X109.475 Y108.693 E52.07242
G1 X109.869 Y108.255 E52.12809
G1 X110.181 Y107.726 E52.18613
G1 X110.377 Y107.142 E52.24435
G1 X110.447 Y106.529 E52.30265
G1 X110.391 Y105.915 E52.36091
G1 X110.205 Y105.327 E52.41919
G1 X109.903 Y104.79 E52.47741
G1 X109.494 Y104.328 E52.53572
G1 X108.976 Y103.944 E52.59666
G1 X108.412 Y103.694 E52.65496
G1 X107.808 Y103.565 E52.71332
G1 X107.192 Y103.565 E52.77154
G1 X106.588 Y103.694 E52.8299
G1 X106.025 Y103.944 E52.88811
G1 X105.525 Y104.307 E52.9465
G1 X105.131 Y104.745 E53.00218
G1 X104.819 Y105.274 E53.06021
G1 X104.623 Y105.858 E53.11843
G1 X104.553 Y106.471 E53.17673
G1 X104.609 Y107.085 E53.235
G1 X104.795 Y107.673 E53.29328
G1 X105.097 Y108.21 E53.3515
G1 X105.506 Y108.672 E53.40981
G1 X106.024 Y109.056 E53.47074
G0 F4500 X106.207 Y109.137
G0 X106.035 Y109.525
G0 X104.265 Y115.779
G0 X104.25 Y117.157
G0 X104.799 Y118.422
G0 X105.852 Y119.444
G0 X106.024 Y119.056
G1 F1800 X106.588 Y119.306 E53.52904
G1 X107.192 Y119.435 E53.5874
G1 X107.808 Y119.435 E53.64562
G1 X108.412 Y119.306 E53.70398
G1 X108.975 Y119.056 E53.7622
G1 X109.475 Y118.693 E53.82058
G1 X109.869 Y118.255 E53.87626
G1 X110.181 Y117.726 E53.9343
G1 X110.377 Y117.142 E53.99251
G1 X110.447 Y116.529 E54.05081
G1 X110.391 Y115.915 E54.10908
G1 X110.205 Y115.327 E54.16736
G1 X109.903 Y114.79 E54.22558
G1 X109.494 Y114.328 E54.28389
G1 X108.976 Y113.944 E54.34482
G1 X108.412 Y113.694 E54.40312
G1 X107.808 Y113.565 E54.46149
G1 X107.192 Y113.565 E54.5197
G1 X106.588 Y113.694 E54.57806
G1 X106.025 Y113.944 E54.63628
G1 X105.525 Y114.307 E54.69467
G1 X105.131 Y114.745 E54.75034
G1 X104.819 Y115.274 E54.80838
G1 X104.623 Y115.858 E54.86659
G1 X104.553 Y116.471 E54.92489
G1 X104.609 Y117.085 E54.98316
G1 X104.795 Y117.673 E55.04144
G1 X105.097 Y118.21 E55.09966
G1 X105.506 Y118.672 E55.15797
G1 X106.024 Y119.056 E55.2189
G0 F4500 X106.207 Y119.137
G0 X106.035 Y119.525
G0 X105.024 Y127.168
G0 X104.979 Y127.592
G1 F1800 X104.684 Y127.529 E55.24741
G1 X104.439 Y127.417 E55.27287
G1 X104.232 Y127.267 E55.29702
G1 X104.047 Y127.062 E55.32312
G1 X103.914 Y126.829 E55.34847
G1 X103.83 Y126.572 E55.37402
G1 X103.8 Y126.23 E55.40647
G1 X103.8 Y96.764 E58.191
G1 X103.83 Y96.429 E58.22279
G1 X103.914 Y96.171 E58.24843
G1 X104.049 Y95.936 E58.27404
G1 X104.238 Y95.729 E58.30053
