M48
;DRILL FILE
;Generated by LibrePCB 0.1.4
;Creation Date: 2020-06-28T21:35:14
FMAT,2
METRIC,TZ
T1C0.3
T2C0.5
T3C0.8
T4C0.9
T5C1.0
T6C1.016
T7C1.2
T8C1.3
T9C1.4
T10C1.85
T11C2.0
T12C3.2
T13C4.0
%
G90
G05
M71
T1
X1.27Y15.24
X21.59Y47.9425
X51.59375Y45.4025
X28.2575Y95.40875
X26.19375Y29.845
X29.68625Y38.1
X46.51375Y43.815
X25.0825Y43.815
X44.92625Y65.405
X87.3125Y50.165
X49.05375Y32.0675
X76.2Y45.085
X28.09875Y44.7675
X60.6425Y34.29
X71.4375Y39.37
X16.51Y48.73625
X22.70125Y48.10125
X1.27Y10.31875
X20.955Y36.03625
X42.70375Y62.5475
X84.29625Y45.4025
X20.6375Y44.45
X95.40875Y43.65625
X31.75Y95.5675
X11.43Y68.42125
X16.98625Y95.40875
X74.93Y45.085
X19.84375Y45.085
X10.00125Y28.8925
X16.66875Y39.84625
X34.76625Y38.25875
X14.44625Y39.21125
X118.26875Y64.77
X49.8475Y43.65625
X39.52875Y58.7375
X16.66875Y36.03625
X81.5975Y94.77375
X1.11125Y81.12125
X118.4275Y85.56625
X118.58625Y95.09125
X24.13Y62.38875
X20.79625Y33.49625
X72.86625Y49.05375
X18.0975Y31.59125
X1.11125Y23.495
X43.02125Y32.0675
X41.11625Y95.25
X49.05375Y28.41625
X22.5425Y31.59125
X3.01625Y47.625
X22.70125Y57.94375
X31.75Y57.94375
X79.21625Y27.94
X79.21625Y4.92125
X26.67Y53.18125
X18.0975Y36.03625
X34.13125Y63.02375
X42.06875Y46.83125
X7.62Y20.0025
X35.40125Y38.25875
X88.10625Y4.92125
X16.1925Y76.835
X67.78625Y4.92125
X53.975Y45.4025
X109.5375Y45.72
X78.89875Y45.72
X76.04125Y49.2125
X118.11Y56.1975
X35.2425Y56.03875
X102.235Y45.72
X108.9025Y5.08
X34.80864Y46.99
X35.91989Y46.99
X36.35375Y25.0825
X55.5625Y45.4025
X47.46625Y67.46875
X7.62Y23.495
X97.79Y4.92125
X3.01625Y55.08625
X109.5375Y42.545
X36.83Y95.09125
X37.94125Y34.76625
X17.145Y54.2925
X20.0025Y76.35875
X25.4Y68.73875
X31.115Y95.09125
X8.5725Y20.0025
X12.3825Y44.60875
X3.01625Y58.7375
X91.1225Y46.355
X37.465Y51.7525
X25.24125Y36.03625
X20.6375Y39.84625
X26.67Y62.865
X22.5425Y32.54375
X57.4675Y49.2125
X60.6425Y37.30625
X23.01875Y4.92125
X28.2575Y63.97625
X64.92875Y49.2125
X115.57Y14.9225
X36.35375Y50.00625
X22.86Y40.005
X28.41625Y41.91
X21.74875Y33.49625
X34.13125Y38.25875
X31.75Y94.615
X30.48Y41.91
X24.60625Y74.13625
X46.6725Y45.4025
X81.43875Y31.59125
X53.6575Y43.65625
X1.11125Y25.87625
X14.12875Y57.15
X30.00375Y5.08
X34.13125Y59.055
X31.75Y47.9425
X31.90875Y50.4825
X22.38375Y36.03625
X1.11125Y25.0825
X7.62Y24.765
X19.685Y42.545
X30.48Y37.1475
X69.85Y94.45625
X18.25625Y49.68875
X51.59375Y5.08
X1.11125Y22.70125
X118.4275Y45.87875
X1.11125Y4.445
X45.24375Y45.4025
X40.3225Y53.34
X38.45989Y46.51375
X39.41239Y46.51375
X31.90875Y51.435
X115.72875Y30.95625
X1.11125Y21.9075
X51.1175Y67.15125
X16.51Y73.18375
X55.40375Y28.09875
X20.955Y47.9425
X38.45989Y46.0375
X39.41239Y46.0375
X6.6675Y20.0025
X51.59375Y43.815
X1.42875Y87.78875
X31.115Y37.7825
X38.45989Y46.99
X39.41239Y46.99
X2.8575Y39.6875
X38.25875Y28.09875
X1.11125Y21.11375
X24.4475Y52.86375
X36.83Y35.8775
X118.4275Y73.9775
X70.1675Y49.05375
X33.17875Y35.08375
X118.4275Y5.55625
X1.27Y95.40875
X34.80864Y46.51375
X35.91989Y46.51375
X42.06875Y45.4025
X27.6225Y41.91
X39.0525Y4.7625
X50.8Y70.32625
X25.0825Y46.355
X16.1925Y42.06875
X39.0525Y53.34
X9.68375Y36.195
X36.195Y94.615
X24.60625Y76.35875
X86.36Y19.52625
X54.2925Y70.00875
X30.48Y47.9425
X12.3825Y45.56125
X26.9875Y67.945
X22.86Y42.38625
X3.01625Y61.9125
X11.7475Y64.77
X25.87625Y41.11625
X11.1125Y64.77
X12.85875Y39.21125
X48.26Y45.4025
X21.2725Y42.38625
X17.145Y49.8475
X1.11125Y76.2
X89.8525Y94.615
X45.24375Y43.65625
X1.11125Y24.28875
X97.31375Y45.72
X28.09875Y45.72
X78.89875Y44.45
X24.844375Y39.925625
X98.425Y34.44875
X112.55375Y23.01875
X77.62875Y46.99
X28.09875Y46.6725
X3.01625Y51.435
X19.84375Y33.49625
X26.51125Y37.30625
X60.96Y94.615
X2.69875Y36.03625
X13.17625Y4.60375
X49.8475Y45.4025
X90.64625Y50.165
X48.5775Y64.77
X61.2775Y49.2125
X88.265Y39.52875
X99.695Y94.77375
X102.235Y42.38625
X18.89125Y33.49625
X34.80864Y46.0375
X35.91989Y46.0375
X25.4Y61.43625
X96.2025Y41.43375
X33.49625Y57.785
X51.435Y95.09125
X22.5425Y33.49625
X55.40375Y32.0675
X19.52625Y36.03625
X1.11125Y18.415
X21.59Y43.815
X36.195Y95.5675
X81.28Y45.72
X27.94Y54.2925
X20.0025Y73.9775
X18.0975Y32.54375
X99.53625Y35.40125
X23.8125Y39.925625
X18.0975Y39.84625
X31.4325Y38.89375
X25.24125Y51.7525
X30.32125Y56.67375
X110.33125Y95.09125
X18.0975Y33.49625
X92.23375Y27.78125
X59.21375Y4.92125
X87.70125Y43.7275
X85.09Y40.9575
X60.6425Y29.5275
X43.02125Y28.2575
X7.62Y22.225
X24.765Y46.0375
X3.175Y43.65625
X78.8275Y40.005
X46.51375Y62.70625
X28.73375Y68.73875
X48.26Y43.65625
X29.05125Y47.9425
X29.21Y55.5625
T2
X46.19625Y53.0225
X43.4975Y41.5925
X42.8625Y58.57875
X51.1175Y55.88
X55.88Y73.025
X41.5925Y53.18125
X100.80625Y33.3375
X32.86125Y39.21125
X29.05125Y33.655
X16.8275Y59.3725
X16.8275Y58.42
T3
X82.77Y40.0
X80.23Y40.0
X82.77Y60.0
X80.23Y60.0
X82.77Y50.0
X80.23Y50.0
T4
X67.6275Y38.72
X67.6275Y52.72
T5
X65.82Y32.385
X38.32Y32.385
X92.75Y57.245
X86.25Y52.755
X92.75Y52.755
X86.25Y57.245
X34.29Y65.405
X58.1025Y56.1975
X60.6425Y56.1975
X63.1825Y56.1975
X29.36875Y87.3125
X67.4075Y63.8175
X39.9075Y63.8175
X26.24Y71.0
X11.0Y71.0
X41.48Y71.0
X49.1Y71.0
X38.94Y71.0
X13.54Y71.0
X23.7Y71.0
X18.62Y71.0
X28.78Y71.0
X46.56Y71.0
X44.02Y71.0
X36.4Y71.0
X16.08Y71.0
X33.86Y71.0
X31.32Y71.0
X21.16Y71.0
X107.79125Y66.3575
X107.79125Y63.8175
X107.79125Y68.8975
X14.9225Y93.345
X53.6575Y55.245
X8.03Y56.35625
X8.03Y43.65625
X10.57Y41.11625
X10.57Y58.89625
X8.03Y38.57625
X8.03Y61.43625
X10.57Y61.43625
X10.57Y51.27625
X10.57Y43.65625
X10.57Y38.57625
X10.57Y48.73625
X8.03Y53.81625
X8.03Y48.73625
X8.03Y46.19625
X10.57Y46.19625
X10.57Y53.81625
X8.03Y41.11625
X8.03Y58.89625
X10.57Y56.35625
X8.03Y51.27625
X20.32Y24.4475
X56.03875Y24.13
X37.30625Y56.515
X67.6275Y56.1975
X31.4325Y25.7175
X31.4325Y23.1775
X31.4325Y20.6375
X40.48125Y56.515
X86.25Y42.755
X92.75Y47.245
X86.25Y47.245
X92.75Y42.755
T6
X72.0725Y56.1975
X77.1525Y56.1975
T7
X17.1425Y82.07375
X11.2925Y82.07375
X33.7925Y82.07375
X27.9425Y82.07375
X14.605Y23.4975
X14.605Y29.3475
X14.605Y6.8475
X14.605Y12.6975
T8
X17.185Y67.23
X22.185Y67.23
X19.685Y57.23
X115.08Y25.54
X115.08Y20.46
X114.95Y39.5
X117.45Y42.0
X114.95Y44.5
T9
X7.0Y12.46
X7.0Y17.54
X23.495Y25.4
X23.495Y10.16
X113.0Y71.46
X113.0Y61.3
X113.0Y81.62
X113.0Y66.38
X113.0Y76.54
X113.0Y86.7
X7.0Y87.08
X7.0Y82.0
X7.0Y76.92
X30.1625Y90.32875
X14.9225Y90.32875
T10
X102.38Y18.3
X102.38Y23.0
X102.38Y27.7
T11
X66.9925Y20.24
X66.9925Y10.24
X68.58Y79.7725
X68.58Y89.7725
X46.0375Y79.7725
X46.0375Y89.7725
X44.45Y20.24
X44.45Y10.24
T12
X85.5Y70.0
X85.5Y30.0
T13
X19.685Y62.23
X74.5Y30.0
X4.5Y30.0
X74.5Y70.0
X4.5Y70.0
T0
M30
